; generated by Slic3r 0.9.10b on 2013-07-03 at 20:27:17

; layer_height = 0.25
; perimeters = 3
; top_solid_layers = 3
; bottom_solid_layers = 3
; fill_density = 0.2
; perimeter_speed = 33
; infill_speed = 40
; travel_speed = 100
; nozzle_diameter = 0.35
; filament_diameter = 3
; extrusion_multiplier = 1
; perimeters extrusion width = 0.39mm
; infill extrusion width = 0.39mm
; solid infill extrusion width = 0.39mm
; top infill extrusion width = 0.39mm
; first layer extrusion width = 0.70mm

G21 ; set units to millimeters
; start G-code
;Stop the fan
M106
G4 P1000
;slow down to printing speed
M106 S50
; Red lights only during preheat
M42 S0 P28  ; Turn blue off.
M42 S0 P31  ; Turn main lights off.
M42 S255 P30  ; Turn red on
M42 S0 P29  ; Turn green off.
M104 S150; set hotend to a safe holding temp
M190 S60 ; set bed and wait for 110 degrees.
; setting the bed here allows us to set the lights to red for heating
;home the axis, lights blue during
M42 S255 P28  ; Turn blue on.
M42 S0 P31  ; Turn main lights off.
M42 S0 P30  ; Turn red off.
M42 S0 P29  ; Turn green off.
M104 S210; set hotend to printing temp.
G28 ; home all axes
; Red lights only again during wait for temperature
M42 S0 P28  ; Turn blue off.
M42 S0 P31  ; Turn main lights off.
M42 S255 P30  ; Turn red on
M42 S0 P29  ; Turn green off.
M109 S210; wait for extruder temp
; up to temp so blue and main lights on.
M42 S255 P28  ; Turn blue on.
M42 S255 P31  ; Turn main lights on.
M42 S0 P30  ; Turn red off.
M42 S0 P29  ; Turn green off.
G90 ; use absolute coordinates
G92 E0
M82 ; use absolute distances for extrusion
M106 S63
G1 F1500.000 E-3.00000
G1 Z0.600 F6000.000
G92 E0
G1 X48.195 Y43.695
G1 Z0.350
G1 F1500.000 E3.00000
G1 X49.105 Y42.915 F990.000 E3.03708
G1 X49.655 Y42.525 E3.05795
G1 X50.325 Y42.115 E3.08225
G1 X50.955 Y41.785 E3.10426
G1 X51.675 Y41.485 E3.12839
G1 X52.385 Y41.255 E3.15148
G1 X53.145 Y41.075 E3.17565
G1 X53.865 Y40.965 E3.19818
G1 X54.995 Y40.895 E3.23322
G1 X64.995 Y40.895 E3.54263
G1 X66.125 Y40.965 E3.57766
G1 X66.845 Y41.075 E3.60020
G1 X67.605 Y41.255 E3.62436
G1 X68.315 Y41.485 E3.64745
G1 X69.035 Y41.785 E3.67159
G1 X69.665 Y42.115 E3.69359
G1 X70.335 Y42.525 E3.71790
G1 X70.915 Y42.935 E3.73987
G1 X71.505 Y43.435 E3.76380
G1 X72.035 Y43.965 E3.78699
G1 X72.545 Y44.565 E3.81136
G1 X72.965 Y45.155 E3.83377
G1 X73.375 Y45.825 E3.85807
G1 X73.705 Y46.455 E3.88008
G1 X74.005 Y47.175 E3.90421
G1 X74.235 Y47.885 E3.92730
G1 X74.415 Y48.645 E3.95147
G1 X74.525 Y49.365 E3.97401
G1 X74.595 Y50.495 E4.00904
G1 X74.595 Y109.495 E5.83458
G1 X74.525 Y110.625 E5.86961
G1 X74.415 Y111.345 E5.89214
G1 X74.235 Y112.105 E5.91631
G1 X74.005 Y112.815 E5.93940
G1 X73.705 Y113.535 E5.96353
G1 X73.375 Y114.165 E5.98554
G1 X72.965 Y114.835 E6.00984
G1 X72.525 Y115.445 E6.03312
G1 X72.015 Y116.035 E6.05725
G1 X71.535 Y116.515 E6.07825
G1 X70.945 Y117.025 E6.10238
G1 X70.335 Y117.465 E6.12565
G1 X69.665 Y117.875 E6.14996
G1 X69.035 Y118.205 E6.17196
G1 X68.315 Y118.505 E6.19610
G1 X67.605 Y118.735 E6.21919
G1 X66.845 Y118.915 E6.24335
G1 X66.125 Y119.025 E6.26589
G1 X64.995 Y119.095 E6.30092
G1 X54.995 Y119.095 E6.61033
G1 X53.865 Y119.025 E6.64536
G1 X53.145 Y118.915 E6.66790
G1 X52.385 Y118.735 E6.69207
G1 X51.675 Y118.505 E6.71516
G1 X50.955 Y118.205 E6.73929
G1 X50.325 Y117.875 E6.76130
G1 X49.655 Y117.465 E6.78560
G1 X49.065 Y117.045 E6.80801
G1 X48.465 Y116.535 E6.83238
G1 X47.935 Y116.005 E6.85557
G1 X47.435 Y115.415 E6.87950
G1 X47.035 Y114.855 E6.90079
G1 X46.615 Y114.175 E6.92552
G1 X46.265 Y113.495 E6.94918
G1 X45.975 Y112.785 E6.97291
G1 X45.755 Y112.105 E6.99503
G1 X45.575 Y111.345 E7.01919
G1 X45.465 Y110.625 E7.04173
G1 X45.395 Y109.495 E7.07676
G1 X45.405 Y50.145 E8.91313
G1 X45.465 Y49.365 E8.93733
G1 X45.575 Y48.635 E8.96018
G1 X45.755 Y47.885 E8.98404
G1 X45.975 Y47.205 E9.00615
G1 X46.275 Y46.475 E9.03057
G1 X46.615 Y45.825 E9.05327
G1 X47.025 Y45.155 E9.07758
G1 X47.415 Y44.605 E9.09844
G1 X48.133 Y43.765 E9.13262
G1 F1500.000 E6.13262
G1 Z0.600 F6000.000
G92 E0
G1 X52.583 Y48.083
G1 Z0.350
G1 F1500.000 E3.00000
G1 X52.991 Y47.735 F990.000 E3.01659
G1 X53.448 Y47.455 E3.03319
G1 X53.944 Y47.250 E3.04978
G1 X54.465 Y47.125 E3.06637
G1 X55.061 Y47.078 E3.08487
G1 X64.939 Y47.078 E3.39049
G1 X65.535 Y47.125 E3.40898
G1 X66.056 Y47.250 E3.42558
G1 X66.552 Y47.455 E3.44217
G1 X67.009 Y47.735 E3.45876
G1 X67.417 Y48.083 E3.47535
G1 X67.765 Y48.491 E3.49195
G1 X68.045 Y48.948 E3.50854
G1 X68.250 Y49.444 E3.52513
G1 X68.375 Y49.965 E3.54173
G1 X68.422 Y50.561 E3.56023
G1 X68.422 Y109.439 E5.38196
G1 X68.375 Y110.035 E5.40046
G1 X68.250 Y110.556 E5.41706
G1 X68.045 Y111.052 E5.43365
G1 X67.765 Y111.509 E5.45024
G1 X67.417 Y111.917 E5.46683
G1 X67.009 Y112.265 E5.48343
G1 X66.552 Y112.545 E5.50002
G1 X66.056 Y112.750 E5.51661
G1 X65.535 Y112.875 E5.53321
G1 X64.939 Y112.922 E5.55170
G1 X55.061 Y112.922 E5.85732
G1 X54.465 Y112.875 E5.87582
G1 X53.944 Y112.750 E5.89241
G1 X53.448 Y112.545 E5.90900
G1 X52.991 Y112.265 E5.92559
G1 X52.583 Y111.916 E5.94219
G1 X52.235 Y111.509 E5.95878
G1 X51.955 Y111.052 E5.97537
G1 X51.750 Y110.556 E5.99197
G1 X51.625 Y110.035 E6.00856
G1 X51.578 Y109.439 E6.02706
G1 X51.578 Y106.228 E6.12641
G1 X51.938 Y106.256 E6.13761
G1 X58.061 Y106.256 E6.32706
G1 X58.557 Y106.217 E6.34244
G1 X59.100 Y106.087 E6.35973
G1 X59.617 Y105.873 E6.37702
G1 X60.093 Y105.581 E6.39431
G1 X60.518 Y105.218 E6.41160
G1 X60.881 Y104.793 E6.42889
G1 X61.173 Y104.317 E6.44618
G1 X61.387 Y103.800 E6.46347
G1 X61.517 Y103.257 E6.48076
G1 X61.556 Y102.761 E6.49614
G1 X61.556 Y102.239 E6.51232
G1 X61.517 Y101.743 E6.52770
G1 X61.387 Y101.200 E6.54499
G1 X61.173 Y100.683 E6.56228
G1 X60.881 Y100.207 E6.57956
G1 X60.518 Y99.782 E6.59686
G1 X60.093 Y99.419 E6.61414
G1 X59.617 Y99.127 E6.63143
G1 X59.100 Y98.913 E6.64872
G1 X58.557 Y98.783 E6.66601
G1 X58.061 Y98.744 E6.68140
G1 X51.939 Y98.744 E6.87083
G1 X51.578 Y98.772 E6.88205
G1 X51.578 Y83.728 E7.34755
G1 X51.938 Y83.756 E7.35875
G1 X58.061 Y83.756 E7.54820
G1 X58.557 Y83.717 E7.56358
G1 X59.100 Y83.587 E7.58087
G1 X59.617 Y83.373 E7.59816
G1 X60.093 Y83.081 E7.61544
G1 X60.518 Y82.718 E7.63274
G1 X60.881 Y82.293 E7.65003
G1 X61.173 Y81.817 E7.66731
G1 X61.387 Y81.300 E7.68460
G1 X61.517 Y80.757 E7.70190
G1 X61.556 Y80.261 E7.71728
G1 X61.556 Y79.739 E7.73346
G1 X61.517 Y79.243 E7.74884
G1 X61.387 Y78.700 E7.76613
G1 X61.173 Y78.183 E7.78342
G1 X60.881 Y77.707 E7.80070
G1 X60.518 Y77.282 E7.81800
G1 X60.093 Y76.919 E7.83528
G1 X59.616 Y76.627 E7.85258
G1 X59.100 Y76.413 E7.86986
G1 X58.557 Y76.283 E7.88715
G1 X58.061 Y76.244 E7.90254
G1 X51.939 Y76.244 E8.09198
G1 X51.578 Y76.272 E8.10319
G1 X51.578 Y61.228 E8.56869
G1 X51.939 Y61.256 E8.57989
G1 X58.061 Y61.256 E8.76933
G1 X58.557 Y61.217 E8.78472
G1 X59.100 Y61.087 E8.80201
G1 X59.616 Y60.873 E8.81930
G1 X60.093 Y60.581 E8.83659
G1 X60.518 Y60.218 E8.85387
G1 X60.881 Y59.793 E8.87117
G1 X61.173 Y59.316 E8.88846
G1 X61.387 Y58.800 E8.90575
G1 X61.517 Y58.257 E8.92304
G1 X61.556 Y57.761 E8.93842
G1 X61.556 Y57.239 E8.95459
G1 X61.517 Y56.743 E8.96998
G1 X61.387 Y56.200 E8.98726
G1 X61.173 Y55.683 E9.00455
G1 X60.881 Y55.207 E9.02184
G1 X60.518 Y54.782 E9.03913
G1 X60.093 Y54.419 E9.05642
G1 X59.617 Y54.127 E9.07371
G1 X59.100 Y53.913 E9.09100
G1 X58.557 Y53.783 E9.10829
G1 X58.061 Y53.744 E9.12367
G1 X51.939 Y53.744 E9.31312
G1 X51.578 Y53.772 E9.32432
G1 X51.578 Y50.561 E9.42367
G1 X51.625 Y49.965 E9.44217
G1 X51.750 Y49.444 E9.45876
G1 X51.955 Y48.948 E9.47536
G1 X52.235 Y48.491 E9.49195
G1 X52.523 Y48.155 E9.50564
G1 F1500.000 E6.50564
G1 Z0.600 F6000.000
G92 E0
G1 X65.633 Y113.495
G1 Z0.350
G1 F1500.000 E3.00000
G1 X64.963 Y113.547 F990.000 E3.02078
G1 X55.037 Y113.547 E3.32791
G1 X54.367 Y113.495 E3.34869
G1 X53.750 Y113.346 E3.36833
G1 X53.164 Y113.104 E3.38797
G1 X52.623 Y112.772 E3.40760
G1 X52.140 Y112.360 E3.42724
G1 X51.728 Y111.877 E3.44687
G1 X51.396 Y111.336 E3.46651
G1 X51.154 Y110.750 E3.48615
G1 X51.005 Y110.133 E3.50578
G1 X50.953 Y109.463 E3.52656
G1 X50.953 Y105.457 E3.65053
G1 X51.541 Y105.598 E3.66925
G1 X51.963 Y105.631 E3.68235
G1 X58.037 Y105.631 E3.87028
G1 X58.459 Y105.598 E3.88338
G1 X58.907 Y105.490 E3.89763
G1 X59.332 Y105.314 E3.91187
G1 X59.724 Y105.074 E3.92612
G1 X60.075 Y104.775 E3.94036
G1 X60.374 Y104.425 E3.95461
G1 X60.614 Y104.032 E3.96885
G1 X60.790 Y103.607 E3.98310
G1 X60.898 Y103.159 E3.99735
G1 X60.931 Y102.737 E4.01045
G1 X60.931 Y102.263 E4.02511
G1 X60.898 Y101.841 E4.03821
G1 X60.790 Y101.393 E4.05245
G1 X60.614 Y100.968 E4.06670
G1 X60.374 Y100.576 E4.08094
G1 X60.075 Y100.225 E4.09519
G1 X59.725 Y99.926 E4.10943
G1 X59.332 Y99.686 E4.12368
G1 X58.907 Y99.510 E4.13793
G1 X58.459 Y99.402 E4.15217
G1 X58.037 Y99.369 E4.16528
G1 X51.963 Y99.369 E4.35320
G1 X51.541 Y99.402 E4.36630
G1 X50.953 Y99.543 E4.38502
G1 X50.953 Y82.957 E4.89824
G1 X51.541 Y83.098 E4.91696
G1 X51.963 Y83.131 E4.93006
G1 X58.037 Y83.131 E5.11799
G1 X58.459 Y83.098 E5.13109
G1 X58.907 Y82.990 E5.14534
G1 X59.332 Y82.814 E5.15958
G1 X59.724 Y82.574 E5.17382
G1 X60.075 Y82.275 E5.18807
G1 X60.374 Y81.925 E5.20232
G1 X60.614 Y81.532 E5.21656
G1 X60.790 Y81.107 E5.23081
G1 X60.898 Y80.659 E5.24506
G1 X60.931 Y80.237 E5.25816
G1 X60.931 Y79.763 E5.27282
G1 X60.898 Y79.341 E5.28592
G1 X60.790 Y78.893 E5.30016
G1 X60.614 Y78.468 E5.31441
G1 X60.374 Y78.076 E5.32865
G1 X60.075 Y77.725 E5.34290
G1 X59.725 Y77.426 E5.35715
G1 X59.332 Y77.186 E5.37140
G1 X58.907 Y77.010 E5.38564
G1 X58.459 Y76.902 E5.39988
G1 X58.037 Y76.869 E5.41299
G1 X51.963 Y76.869 E5.60091
G1 X51.541 Y76.902 E5.61402
G1 X50.953 Y77.043 E5.63273
G1 X50.953 Y60.457 E6.14595
G1 X51.541 Y60.598 E6.16467
G1 X51.963 Y60.631 E6.17777
G1 X58.037 Y60.631 E6.36570
G1 X58.459 Y60.598 E6.37880
G1 X58.907 Y60.490 E6.39305
G1 X59.332 Y60.314 E6.40729
G1 X59.725 Y60.074 E6.42154
G1 X60.075 Y59.775 E6.43578
G1 X60.374 Y59.425 E6.45003
G1 X60.614 Y59.032 E6.46428
G1 X60.790 Y58.607 E6.47852
G1 X60.898 Y58.159 E6.49277
G1 X60.931 Y57.737 E6.50587
G1 X60.931 Y57.263 E6.52053
G1 X60.898 Y56.841 E6.53363
G1 X60.790 Y56.393 E6.54787
G1 X60.614 Y55.968 E6.56212
G1 X60.374 Y55.575 E6.57636
G1 X60.075 Y55.225 E6.59061
G1 X59.725 Y54.926 E6.60486
G1 X59.332 Y54.686 E6.61910
G1 X58.907 Y54.510 E6.63335
G1 X58.459 Y54.402 E6.64759
G1 X58.037 Y54.369 E6.66070
G1 X51.963 Y54.369 E6.84862
G1 X51.541 Y54.402 E6.86172
G1 X50.953 Y54.543 E6.88044
G1 X50.953 Y50.537 E7.00441
G1 X51.005 Y49.867 E7.02519
G1 X51.154 Y49.250 E7.04482
G1 X51.396 Y48.664 E7.06446
G1 X51.728 Y48.123 E7.08410
G1 X52.140 Y47.640 E7.10373
G1 X52.623 Y47.228 E7.12337
G1 X53.164 Y46.896 E7.14301
G1 X53.750 Y46.654 E7.16264
G1 X54.367 Y46.505 E7.18228
G1 X55.037 Y46.453 E7.20306
G1 X64.963 Y46.453 E7.51019
G1 X65.633 Y46.505 E7.53097
G1 X66.250 Y46.654 E7.55061
G1 X66.836 Y46.896 E7.57025
G1 X67.377 Y47.228 E7.58988
G1 X67.860 Y47.640 E7.60952
G1 X68.272 Y48.123 E7.62915
G1 X68.604 Y48.664 E7.64879
G1 X68.846 Y49.250 E7.66843
G1 X68.995 Y49.867 E7.68806
G1 X69.047 Y50.537 E7.70884
G1 X69.047 Y109.463 E9.53210
G1 X68.995 Y110.133 E9.55288
G1 X68.846 Y110.750 E9.57252
G1 X68.604 Y111.336 E9.59215
G1 X68.272 Y111.877 E9.61179
G1 X67.860 Y112.360 E9.63143
G1 X67.377 Y112.772 E9.65106
G1 X66.836 Y113.104 E9.67070
G1 X66.250 Y113.346 E9.69033
G1 X65.724 Y113.473 E9.70707
G1 X65.731 Y114.114 F6000.000
G1 X64.988 Y114.172 F594.000 E9.73013
G1 X55.012 Y114.172 E10.03879
G1 X54.269 Y114.114 E10.06185
G1 X53.557 Y113.943 E10.08453
G1 X52.879 Y113.662 E10.10721
G1 X52.254 Y113.279 E10.12989
G1 X51.697 Y112.803 E10.15257
G1 X51.221 Y112.246 E10.17524
G1 X50.838 Y111.621 E10.19792
G1 X50.557 Y110.943 E10.22060
G1 X50.386 Y110.231 E10.24328
G1 X50.328 Y109.488 E10.26634
G1 X50.328 Y104.297 E10.42696
G1 X50.644 Y104.567 E10.43981
G1 X50.953 Y104.756 E10.45102
G1 X51.287 Y104.894 E10.46222
G1 X51.639 Y104.979 E10.47342
G1 X51.988 Y105.006 E10.48424
G1 X58.012 Y105.006 E10.67065
G1 X58.361 Y104.979 E10.68147
G1 X58.713 Y104.894 E10.69267
G1 X59.047 Y104.756 E10.70387
G1 X59.356 Y104.567 E10.71508
G1 X59.631 Y104.332 E10.72628
G1 X59.867 Y104.056 E10.73748
G1 X60.056 Y103.748 E10.74868
G1 X60.194 Y103.413 E10.75989
G1 X60.279 Y103.061 E10.77109
G1 X60.306 Y102.712 E10.78191
G1 X60.306 Y102.288 E10.79505
G1 X60.279 Y101.939 E10.80587
G1 X60.194 Y101.587 E10.81707
G1 X60.056 Y101.253 E10.82827
G1 X59.867 Y100.944 E10.83947
G1 X59.631 Y100.668 E10.85068
G1 X59.356 Y100.433 E10.86188
G1 X59.047 Y100.244 E10.87308
G1 X58.713 Y100.106 E10.88428
G1 X58.361 Y100.021 E10.89548
G1 X58.012 Y99.994 E10.90631
G1 X51.988 Y99.994 E11.09271
G1 X51.639 Y100.021 E11.10353
G1 X51.287 Y100.106 E11.11474
G1 X50.953 Y100.244 E11.12594
G1 X50.644 Y100.433 E11.13714
G1 X50.328 Y100.703 E11.15000
G1 X50.328 Y81.797 E11.73499
G1 X50.644 Y82.067 E11.74784
G1 X50.953 Y82.256 E11.75904
G1 X51.287 Y82.394 E11.77024
G1 X51.639 Y82.479 E11.78145
G1 X51.988 Y82.506 E11.79227
G1 X58.012 Y82.506 E11.97868
G1 X58.361 Y82.479 E11.98950
G1 X58.713 Y82.394 E12.00070
G1 X59.047 Y82.256 E12.01190
G1 X59.356 Y82.067 E12.02310
G1 X59.631 Y81.832 E12.03431
G1 X59.867 Y81.556 E12.04551
G1 X60.056 Y81.248 E12.05671
G1 X60.194 Y80.913 E12.06791
G1 X60.279 Y80.561 E12.07912
G1 X60.306 Y80.212 E12.08994
G1 X60.306 Y79.788 E12.10307
G1 X60.279 Y79.439 E12.11389
G1 X60.194 Y79.087 E12.12510
G1 X60.056 Y78.752 E12.13630
G1 X59.867 Y78.444 E12.14750
G1 X59.631 Y78.168 E12.15871
G1 X59.356 Y77.933 E12.16991
G1 X59.047 Y77.744 E12.18111
G1 X58.713 Y77.606 E12.19231
G1 X58.361 Y77.521 E12.20351
G1 X58.012 Y77.494 E12.21433
G1 X51.988 Y77.494 E12.40074
G1 X51.639 Y77.521 E12.41156
G1 X51.287 Y77.606 E12.42277
G1 X50.953 Y77.744 E12.43397
G1 X50.644 Y77.933 E12.44517
G1 X50.328 Y78.203 E12.45802
G1 X50.328 Y59.297 E13.04301
G1 X50.644 Y59.567 E13.05587
G1 X50.953 Y59.756 E13.06707
G1 X51.287 Y59.894 E13.07827
G1 X51.639 Y59.979 E13.08948
G1 X51.988 Y60.006 E13.10030
G1 X58.012 Y60.006 E13.28670
G1 X58.361 Y59.979 E13.29753
G1 X58.713 Y59.894 E13.30873
G1 X59.047 Y59.756 E13.31993
G1 X59.356 Y59.567 E13.33113
G1 X59.631 Y59.332 E13.34233
G1 X59.867 Y59.056 E13.35354
G1 X60.056 Y58.747 E13.36474
G1 X60.194 Y58.413 E13.37594
G1 X60.279 Y58.061 E13.38714
G1 X60.306 Y57.712 E13.39796
G1 X60.306 Y57.288 E13.41110
G1 X60.279 Y56.939 E13.42192
G1 X60.194 Y56.587 E13.43312
G1 X60.056 Y56.253 E13.44433
G1 X59.867 Y55.944 E13.45553
G1 X59.631 Y55.668 E13.46673
G1 X59.356 Y55.433 E13.47793
G1 X59.047 Y55.244 E13.48914
G1 X58.713 Y55.106 E13.50034
G1 X58.361 Y55.021 E13.51154
G1 X58.012 Y54.994 E13.52236
G1 X51.988 Y54.994 E13.70877
G1 X51.639 Y55.021 E13.71959
G1 X51.287 Y55.106 E13.73079
G1 X50.952 Y55.244 E13.74200
G1 X50.644 Y55.433 E13.75320
G1 X50.328 Y55.703 E13.76605
G1 X50.328 Y50.512 E13.92667
G1 X50.386 Y49.769 E13.94973
G1 X50.557 Y49.057 E13.97241
G1 X50.838 Y48.379 E13.99509
G1 X51.221 Y47.754 E14.01777
G1 X51.697 Y47.197 E14.04045
G1 X52.254 Y46.721 E14.06313
G1 X52.879 Y46.338 E14.08581
G1 X53.557 Y46.057 E14.10849
G1 X54.269 Y45.886 E14.13117
G1 X55.012 Y45.828 E14.15423
G1 X64.988 Y45.828 E14.46288
G1 X65.731 Y45.886 E14.48594
G1 X66.443 Y46.057 E14.50862
G1 X67.121 Y46.338 E14.53130
G1 X67.746 Y46.721 E14.55398
G1 X68.303 Y47.197 E14.57666
G1 X68.779 Y47.754 E14.59934
G1 X69.162 Y48.379 E14.62202
G1 X69.443 Y49.057 E14.64470
G1 X69.614 Y49.769 E14.66738
G1 X69.672 Y50.512 E14.69044
G1 X69.672 Y109.488 E16.51522
G1 X69.614 Y110.231 E16.53828
G1 X69.443 Y110.943 E16.56096
G1 X69.162 Y111.621 E16.58364
G1 X68.779 Y112.246 E16.60632
G1 X68.303 Y112.803 E16.62900
G1 X67.746 Y113.279 E16.65168
G1 X67.121 Y113.662 E16.67435
G1 X66.443 Y113.943 E16.69704
G1 X65.822 Y114.092 E16.71681
G1 X65.350 Y113.618 F6000.000
G1 X53.637 Y112.129
G1 X52.371 Y110.863 F1200.000 E16.77233
G1 X52.049 Y109.656 E16.81109
G1 X54.844 Y112.451 E16.93367
G1 X55.748 Y112.469 E16.96172
G1 X52.031 Y108.752 E17.12478
G1 X52.031 Y107.866 E17.15225
G1 X56.634 Y112.469 E17.35416
G1 X57.520 Y112.469 E17.38163
G1 X52.031 Y106.980 E17.62239
G1 X52.645 Y106.709 E17.64322
G1 X58.406 Y112.469 E17.89587
