; generated by Slic3r 0.9.10b on 2013-07-02 at 21:56:36

; layer_height = 0.25
; perimeters = 3
; top_solid_layers = 3
; bottom_solid_layers = 3
; fill_density = 0.2
; perimeter_speed = 33
; infill_speed = 40
; travel_speed = 100
; nozzle_diameter = 0.35
; filament_diameter = 3
; extrusion_multiplier = 1
; perimeters extrusion width = 0.39mm
; infill extrusion width = 0.39mm
; solid infill extrusion width = 0.39mm
; top infill extrusion width = 0.39mm
; first layer extrusion width = 0.70mm

G21 ; set units to millimeters
; start G-code
;Stop the fan
M106
G4 P1000
;slow down to printing speed
M106 S50
; Red lights only during preheat
M42 S0 P28  ; Turn blue off.
M42 S0 P31  ; Turn main lights off.
M42 S255 P30  ; Turn red on
M42 S0 P29  ; Turn green off.
M104 S150; set hotend to a safe holding temp
M190 S60 ; set bed and wait for 110 degrees.
; setting the bed here allows us to set the lights to red for heating
;home the axis, lights blue during
M42 S255 P28  ; Turn blue on.
M42 S0 P31  ; Turn main lights off.
M42 S0 P30  ; Turn red off.
M42 S0 P29  ; Turn green off.
M104 S210; set hotend to printing temp.
G28 ; home all axes
; Red lights only again during wait for temperature
M42 S0 P28  ; Turn blue off.
M42 S0 P31  ; Turn main lights off.
M42 S255 P30  ; Turn red on
M42 S0 P29  ; Turn green off.
M109 S210; wait for extruder temp
; up to temp so blue and main lights on.
M42 S255 P28  ; Turn blue on.
M42 S255 P31  ; Turn main lights on.
M42 S0 P30  ; Turn red off.
M42 S0 P29  ; Turn green off.
G90 ; use absolute coordinates
G92 E0
M82 ; use absolute distances for extrusion
M106 S63
G1 F1500.000 E-3.00000
G1 Z0.600 F6000.000
G92 E0
G1 X26.515 Y66.255
G1 Z0.350
G1 F1500.000 E3.00000
G1 X27.235 Y65.965 F990.000 E3.02402
G1 X27.895 Y65.755 E3.04545
G1 X28.655 Y65.575 E3.06961
G1 X29.375 Y65.465 E3.09215
G1 X30.505 Y65.395 E3.12718
G1 X89.495 Y65.395 E4.95241
G1 X90.625 Y65.465 E4.98744
G1 X91.345 Y65.575 E5.00998
G1 X92.105 Y65.755 E5.03414
G1 X92.815 Y65.985 E5.05723
G1 X93.535 Y66.285 E5.08137
G1 X94.165 Y66.615 E5.10337
G1 X94.835 Y67.025 E5.12768
G1 X95.415 Y67.435 E5.14965
G1 X96.005 Y67.935 E5.17358
G1 X96.535 Y68.465 E5.19677
G1 X97.045 Y69.065 E5.22114
G1 X97.465 Y69.655 E5.24355
G1 X97.875 Y70.325 E5.26785
G1 X98.195 Y70.935 E5.28917
G1 X98.495 Y71.645 E5.31302
G1 X98.735 Y72.395 E5.33738
G1 X98.915 Y73.165 E5.36185
G1 X99.025 Y73.865 E5.38377
G1 X99.095 Y74.995 E5.41880
G1 X99.095 Y84.995 E5.72822
G1 X99.025 Y86.125 E5.76325
G1 X98.915 Y86.845 E5.78578
G1 X98.735 Y87.605 E5.80995
G1 X98.505 Y88.315 E5.83304
G1 X98.205 Y89.035 E5.85718
G1 X97.875 Y89.665 E5.87918
G1 X97.465 Y90.335 E5.90348
G1 X97.025 Y90.945 E5.92676
G1 X96.515 Y91.535 E5.95089
G1 X96.035 Y92.015 E5.97189
G1 X95.445 Y92.525 E5.99602
G1 X94.835 Y92.965 E6.01929
G1 X94.165 Y93.375 E6.04360
G1 X93.535 Y93.705 E6.06560
G1 X92.815 Y94.005 E6.08974
G1 X92.105 Y94.235 E6.11283
G1 X91.345 Y94.415 E6.13699
G1 X90.625 Y94.525 E6.15953
G1 X89.495 Y94.595 E6.19456
G1 X30.505 Y94.595 E8.01979
G1 X29.375 Y94.525 E8.05482
G1 X28.655 Y94.415 E8.07736
G1 X27.895 Y94.235 E8.10152
G1 X27.185 Y94.005 E8.12462
G1 X26.465 Y93.705 E8.14875
G1 X25.835 Y93.375 E8.17075
G1 X25.165 Y92.965 E8.19506
G1 X24.575 Y92.545 E8.21747
G1 X23.975 Y92.035 E8.24183
G1 X23.445 Y91.505 E8.26502
G1 X22.945 Y90.915 E8.28895
G1 X22.535 Y90.335 E8.31093
G1 X22.125 Y89.665 E8.33523
G1 X21.795 Y89.035 E8.35724
G1 X21.495 Y88.315 E8.38137
G1 X21.265 Y87.605 E8.40447
G1 X21.085 Y86.845 E8.42863
G1 X20.975 Y86.185 E8.44934
G1 X20.905 Y85.405 E8.47357
G1 X20.905 Y74.585 E8.80835
G1 X20.975 Y73.795 E8.83289
G1 X21.085 Y73.125 E8.85390
G1 X21.265 Y72.375 E8.87776
G1 X21.495 Y71.675 E8.90056
G1 X21.795 Y70.955 E8.92470
G1 X22.125 Y70.325 E8.94670
G1 X22.535 Y69.655 E8.97101
G1 X22.925 Y69.105 E8.99187
G1 X23.425 Y68.505 E9.01603
G1 X23.705 Y68.195 E9.02896
G1 X24.015 Y67.915 E9.04188
G1 X24.615 Y67.415 E9.06605
G1 X25.115 Y67.045 E9.08530
G1 X25.785 Y66.625 E9.10976
G1 X26.145 Y66.425 E9.12251
G1 X26.430 Y66.295 E9.13220
G1 F1500.000 E6.13220
G1 Z0.600 F6000.000
G92 E0
G1 X28.948 Y71.955
G1 Z0.350
G1 F1500.000 E3.00000
G1 X29.444 Y71.750 F990.000 E3.01659
G1 X29.965 Y71.625 E3.03319
G1 X30.561 Y71.578 E3.05169
G1 X33.772 Y71.578 E3.15104
G1 X33.744 Y71.939 E3.16224
G1 X33.744 Y78.061 E3.35168
G1 X33.783 Y78.557 E3.36707
G1 X33.913 Y79.100 E3.38436
G1 X34.127 Y79.616 E3.40164
G1 X34.419 Y80.093 E3.41894
G1 X34.782 Y80.518 E3.43622
G1 X35.207 Y80.881 E3.45352
G1 X35.683 Y81.173 E3.47080
G1 X36.200 Y81.387 E3.48809
G1 X36.743 Y81.517 E3.50538
G1 X37.239 Y81.556 E3.52076
G1 X37.761 Y81.556 E3.53694
G1 X38.257 Y81.517 E3.55232
G1 X38.800 Y81.387 E3.56961
G1 X39.316 Y81.173 E3.58690
G1 X39.793 Y80.881 E3.60419
G1 X40.218 Y80.518 E3.62148
G1 X40.581 Y80.093 E3.63877
G1 X40.873 Y79.617 E3.65606
G1 X41.087 Y79.100 E3.67334
G1 X41.217 Y78.557 E3.69063
G1 X41.256 Y78.061 E3.70602
G1 X41.256 Y71.939 E3.89546
G1 X41.228 Y71.578 E3.90667
G1 X56.272 Y71.578 E4.37217
G1 X56.244 Y71.939 E4.38338
G1 X56.244 Y78.061 E4.57282
G1 X56.283 Y78.557 E4.58821
G1 X56.413 Y79.100 E4.60550
G1 X56.627 Y79.617 E4.62279
G1 X56.919 Y80.093 E4.64007
G1 X57.282 Y80.518 E4.65736
G1 X57.707 Y80.881 E4.67465
G1 X58.183 Y81.173 E4.69194
G1 X58.700 Y81.387 E4.70923
G1 X59.243 Y81.517 E4.72652
G1 X59.739 Y81.556 E4.74190
G1 X60.261 Y81.556 E4.75808
G1 X60.757 Y81.517 E4.77346
G1 X61.300 Y81.387 E4.79075
G1 X61.817 Y81.173 E4.80804
G1 X62.293 Y80.881 E4.82532
G1 X62.718 Y80.518 E4.84262
G1 X63.081 Y80.093 E4.85990
G1 X63.373 Y79.617 E4.87720
G1 X63.587 Y79.100 E4.89448
G1 X63.717 Y78.557 E4.91178
G1 X63.756 Y78.061 E4.92716
G1 X63.756 Y71.939 E5.11660
G1 X63.728 Y71.578 E5.12781
G1 X78.772 Y71.578 E5.59331
G1 X78.744 Y71.939 E5.60452
G1 X78.744 Y78.061 E5.79395
G1 X78.783 Y78.557 E5.80934
G1 X78.913 Y79.100 E5.82663
G1 X79.127 Y79.617 E5.84392
G1 X79.419 Y80.093 E5.86121
G1 X79.782 Y80.518 E5.87849
G1 X80.207 Y80.881 E5.89579
G1 X80.683 Y81.173 E5.91308
G1 X81.200 Y81.387 E5.93037
G1 X81.743 Y81.517 E5.94765
G1 X82.239 Y81.556 E5.96304
G1 X82.761 Y81.556 E5.97921
G1 X83.257 Y81.517 E5.99459
G1 X83.800 Y81.387 E6.01188
G1 X84.317 Y81.173 E6.02917
G1 X84.793 Y80.881 E6.04646
G1 X85.218 Y80.518 E6.06376
G1 X85.581 Y80.093 E6.08104
G1 X85.873 Y79.617 E6.09833
G1 X86.087 Y79.100 E6.11562
G1 X86.217 Y78.557 E6.13291
G1 X86.256 Y78.061 E6.14829
G1 X86.256 Y71.938 E6.33774
G1 X86.228 Y71.578 E6.34894
G1 X89.439 Y71.578 E6.44830
G1 X90.035 Y71.625 E6.46679
G1 X90.556 Y71.750 E6.48339
G1 X91.052 Y71.955 E6.49998
G1 X91.509 Y72.235 E6.51657
G1 X91.917 Y72.583 E6.53317
G1 X92.265 Y72.991 E6.54976
G1 X92.545 Y73.448 E6.56635
G1 X92.750 Y73.944 E6.58295
G1 X92.875 Y74.465 E6.59954
G1 X92.922 Y75.061 E6.61804
G1 X92.922 Y84.939 E6.92365
G1 X92.875 Y85.535 E6.94215
G1 X92.750 Y86.056 E6.95874
G1 X92.545 Y86.552 E6.97534
G1 X92.265 Y87.009 E6.99193
G1 X91.917 Y87.417 E7.00852
G1 X91.509 Y87.765 E7.02511
G1 X91.052 Y88.045 E7.04171
G1 X90.556 Y88.250 E7.05830
G1 X90.035 Y88.375 E7.07489
G1 X89.439 Y88.422 E7.09339
G1 X30.561 Y88.422 E8.91513
G1 X29.965 Y88.375 E8.93363
G1 X29.444 Y88.250 E8.95022
G1 X28.948 Y88.045 E8.96682
G1 X28.491 Y87.765 E8.98341
G1 X28.083 Y87.417 E9.00000
G1 X27.735 Y87.009 E9.01659
G1 X27.455 Y86.552 E9.03318
G1 X27.250 Y86.056 E9.04978
G1 X27.125 Y85.535 E9.06637
G1 X27.078 Y84.939 E9.08487
G1 X27.078 Y75.061 E9.39048
G1 X27.125 Y74.465 E9.40898
G1 X27.250 Y73.944 E9.42558
G1 X27.455 Y73.448 E9.44217
G1 X27.735 Y72.991 E9.45876
G1 X28.083 Y72.583 E9.47536
G1 X28.491 Y72.235 E9.49195
G1 X28.869 Y72.004 E9.50564
G1 F1500.000 E6.50564
G1 Z0.600 F6000.000
G92 E0
G1 X90.750 Y88.846
G1 Z0.350
G1 F1500.000 E3.00000
G1 X90.133 Y88.995 F990.000 E3.01964
G1 X89.463 Y89.047 E3.04042
G1 X30.537 Y89.047 E4.86367
G1 X29.867 Y88.995 E4.88445
G1 X29.250 Y88.846 E4.90409
G1 X28.664 Y88.604 E4.92373
G1 X28.123 Y88.272 E4.94336
G1 X27.640 Y87.860 E4.96300
G1 X27.228 Y87.377 E4.98264
G1 X26.896 Y86.836 E5.00227
G1 X26.654 Y86.250 E5.02191
G1 X26.505 Y85.633 E5.04154
G1 X26.453 Y84.963 E5.06232
G1 X26.453 Y75.037 E5.36946
G1 X26.505 Y74.367 E5.39024
G1 X26.654 Y73.750 E5.40987
G1 X26.896 Y73.164 E5.42951
G1 X27.228 Y72.623 E5.44915
G1 X27.640 Y72.140 E5.46878
G1 X28.123 Y71.728 E5.48842
G1 X28.664 Y71.396 E5.50805
G1 X29.250 Y71.154 E5.52769
G1 X29.867 Y71.005 E5.54733
G1 X30.537 Y70.953 E5.56811
G1 X34.543 Y70.953 E5.69208
G1 X34.402 Y71.541 E5.71079
G1 X34.369 Y71.963 E5.72390
G1 X34.369 Y78.037 E5.91182
G1 X34.402 Y78.459 E5.92493
G1 X34.510 Y78.907 E5.93917
G1 X34.686 Y79.332 E5.95342
G1 X34.926 Y79.725 E5.96766
G1 X35.225 Y80.075 E5.98191
G1 X35.575 Y80.374 E5.99616
G1 X35.968 Y80.614 E6.01040
G1 X36.393 Y80.790 E6.02465
G1 X36.841 Y80.898 E6.03889
G1 X37.263 Y80.931 E6.05199
G1 X37.737 Y80.931 E6.06665
G1 X38.159 Y80.898 E6.07975
G1 X38.607 Y80.790 E6.09400
G1 X39.032 Y80.614 E6.10824
G1 X39.425 Y80.374 E6.12249
G1 X39.775 Y80.075 E6.13674
G1 X40.074 Y79.725 E6.15098
G1 X40.314 Y79.332 E6.16523
G1 X40.490 Y78.907 E6.17947
G1 X40.598 Y78.459 E6.19372
G1 X40.631 Y78.037 E6.20682
G1 X40.631 Y71.963 E6.39475
G1 X40.598 Y71.541 E6.40785
G1 X40.457 Y70.953 E6.42657
G1 X57.043 Y70.953 E6.93979
G1 X56.902 Y71.541 E6.95851
G1 X56.869 Y71.963 E6.97161
G1 X56.869 Y78.037 E7.15953
G1 X56.902 Y78.459 E7.17264
G1 X57.010 Y78.907 E7.18688
G1 X57.186 Y79.332 E7.20113
G1 X57.426 Y79.725 E7.21537
G1 X57.725 Y80.075 E7.22962
G1 X58.075 Y80.374 E7.24387
G1 X58.468 Y80.614 E7.25811
G1 X58.893 Y80.790 E7.27236
G1 X59.341 Y80.898 E7.28660
G1 X59.763 Y80.931 E7.29970
G1 X60.237 Y80.931 E7.31436
G1 X60.659 Y80.898 E7.32746
G1 X61.107 Y80.790 E7.34171
G1 X61.532 Y80.614 E7.35595
G1 X61.924 Y80.374 E7.37020
G1 X62.275 Y80.075 E7.38445
G1 X62.574 Y79.725 E7.39869
G1 X62.814 Y79.332 E7.41294
G1 X62.990 Y78.907 E7.42718
G1 X63.098 Y78.459 E7.44143
G1 X63.131 Y78.037 E7.45453
G1 X63.131 Y71.963 E7.64246
G1 X63.098 Y71.541 E7.65556
G1 X62.957 Y70.953 E7.67428
G1 X79.543 Y70.953 E8.18749
G1 X79.402 Y71.541 E8.20621
G1 X79.369 Y71.963 E8.21932
G1 X79.369 Y78.037 E8.40724
G1 X79.402 Y78.459 E8.42034
G1 X79.510 Y78.907 E8.43459
G1 X79.686 Y79.332 E8.44884
G1 X79.926 Y79.725 E8.46308
G1 X80.225 Y80.075 E8.47733
G1 X80.576 Y80.374 E8.49158
G1 X80.968 Y80.614 E8.50582
G1 X81.393 Y80.790 E8.52007
G1 X81.841 Y80.898 E8.53431
G1 X82.263 Y80.931 E8.54741
G1 X82.737 Y80.931 E8.56207
G1 X83.159 Y80.898 E8.57517
G1 X83.607 Y80.790 E8.58942
G1 X84.032 Y80.614 E8.60366
G1 X84.424 Y80.374 E8.61790
G1 X84.775 Y80.075 E8.63216
G1 X85.074 Y79.725 E8.64640
G1 X85.314 Y79.332 E8.66064
G1 X85.490 Y78.907 E8.67489
G1 X85.598 Y78.459 E8.68914
G1 X85.631 Y78.037 E8.70224
G1 X85.631 Y71.963 E8.89017
G1 X85.598 Y71.541 E8.90327
G1 X85.457 Y70.953 E8.92199
G1 X89.463 Y70.953 E9.04595
G1 X90.133 Y71.005 E9.06673
G1 X90.750 Y71.154 E9.08637
G1 X91.336 Y71.396 E9.10600
G1 X91.877 Y71.728 E9.12564
G1 X92.360 Y72.140 E9.14528
G1 X92.772 Y72.623 E9.16491
G1 X93.104 Y73.164 E9.18455
G1 X93.346 Y73.750 E9.20419
G1 X93.495 Y74.367 E9.22382
G1 X93.547 Y75.037 E9.24460
G1 X93.547 Y84.963 E9.55174
G1 X93.495 Y85.633 E9.57252
G1 X93.346 Y86.250 E9.59215
G1 X93.104 Y86.836 E9.61179
G1 X92.772 Y87.377 E9.63143
G1 X92.360 Y87.860 E9.65106
G1 X91.877 Y88.272 E9.67070
G1 X91.336 Y88.604 E9.69034
G1 X90.836 Y88.811 E9.70707
G1 X90.943 Y89.443 F6000.000
G1 X90.231 Y89.614 F594.000 E9.72975
G1 X89.488 Y89.672 E9.75281
G1 X30.512 Y89.672 E11.57759
G1 X29.769 Y89.614 E11.60065
G1 X29.057 Y89.443 E11.62333
G1 X28.379 Y89.162 E11.64601
G1 X27.754 Y88.779 E11.66869
G1 X27.197 Y88.303 E11.69137
G1 X26.721 Y87.746 E11.71405
G1 X26.338 Y87.121 E11.73673
G1 X26.057 Y86.443 E11.75941
G1 X25.886 Y85.731 E11.78209
G1 X25.828 Y84.988 E11.80515
G1 X25.828 Y75.012 E12.11380
G1 X25.886 Y74.269 E12.13686
G1 X26.057 Y73.557 E12.15954
G1 X26.338 Y72.879 E12.18222
G1 X26.721 Y72.254 E12.20490
G1 X27.197 Y71.697 E12.22758
G1 X27.754 Y71.221 E12.25026
G1 X28.379 Y70.838 E12.27294
G1 X29.057 Y70.557 E12.29562
G1 X29.769 Y70.386 E12.31830
G1 X30.512 Y70.328 E12.34136
G1 X35.703 Y70.328 E12.50197
G1 X35.433 Y70.644 E12.51483
G1 X35.244 Y70.953 E12.52603
G1 X35.106 Y71.287 E12.53723
G1 X35.021 Y71.639 E12.54844
G1 X34.994 Y71.988 E12.55926
G1 X34.994 Y78.012 E12.74567
G1 X35.021 Y78.361 E12.75649
G1 X35.106 Y78.713 E12.76769
G1 X35.244 Y79.047 E12.77889
G1 X35.433 Y79.356 E12.79009
G1 X35.668 Y79.631 E12.80129
G1 X35.944 Y79.867 E12.81250
G1 X36.252 Y80.056 E12.82370
G1 X36.587 Y80.194 E12.83490
G1 X36.939 Y80.279 E12.84611
G1 X37.288 Y80.306 E12.85693
G1 X37.712 Y80.306 E12.87006
G1 X38.061 Y80.279 E12.88088
G1 X38.413 Y80.194 E12.89208
G1 X38.747 Y80.056 E12.90329
G1 X39.056 Y79.867 E12.91449
G1 X39.332 Y79.631 E12.92569
G1 X39.567 Y79.356 E12.93689
G1 X39.756 Y79.047 E12.94810
G1 X39.894 Y78.713 E12.95930
G1 X39.979 Y78.361 E12.97050
G1 X40.006 Y78.012 E12.98132
G1 X40.006 Y71.988 E13.16773
G1 X39.979 Y71.639 E13.17855
G1 X39.894 Y71.287 E13.18975
G1 X39.756 Y70.953 E13.20096
G1 X39.567 Y70.644 E13.21216
G1 X39.297 Y70.328 E13.22501
G1 X58.203 Y70.328 E13.81000
G1 X57.933 Y70.644 E13.82286
G1 X57.744 Y70.953 E13.83406
G1 X57.606 Y71.287 E13.84526
G1 X57.521 Y71.639 E13.85646
G1 X57.494 Y71.988 E13.86729
G1 X57.494 Y78.012 E14.05369
G1 X57.521 Y78.361 E14.06452
G1 X57.606 Y78.713 E14.07572
G1 X57.744 Y79.047 E14.08692
G1 X57.933 Y79.356 E14.09812
G1 X58.168 Y79.631 E14.10932
G1 X58.444 Y79.867 E14.12053
G1 X58.752 Y80.056 E14.13173
G1 X59.087 Y80.194 E14.14293
G1 X59.439 Y80.279 E14.15413
G1 X59.788 Y80.306 E14.16495
G1 X60.212 Y80.306 E14.17809
G1 X60.561 Y80.279 E14.18891
G1 X60.913 Y80.194 E14.20011
G1 X61.247 Y80.056 E14.21132
G1 X61.556 Y79.867 E14.22252
G1 X61.832 Y79.631 E14.23372
G1 X62.067 Y79.356 E14.24492
G1 X62.256 Y79.047 E14.25612
G1 X62.394 Y78.713 E14.26733
G1 X62.479 Y78.361 E14.27853
G1 X62.506 Y78.012 E14.28935
G1 X62.506 Y71.988 E14.47576
G1 X62.479 Y71.639 E14.48658
G1 X62.394 Y71.287 E14.49778
G1 X62.256 Y70.953 E14.50898
G1 X62.067 Y70.644 E14.52018
G1 X61.797 Y70.328 E14.53304
G1 X80.703 Y70.328 E15.11803
G1 X80.433 Y70.644 E15.13089
G1 X80.244 Y70.953 E15.14209
G1 X80.106 Y71.287 E15.15329
G1 X80.021 Y71.639 E15.16449
G1 X79.994 Y71.988 E15.17531
G1 X79.994 Y78.012 E15.36172
G1 X80.021 Y78.361 E15.37254
G1 X80.106 Y78.713 E15.38375
G1 X80.244 Y79.047 E15.39495
G1 X80.433 Y79.356 E15.40615
G1 X80.668 Y79.631 E15.41735
G1 X80.944 Y79.867 E15.42855
G1 X81.253 Y80.056 E15.43975
G1 X81.587 Y80.194 E15.45096
G1 X81.939 Y80.279 E15.46216
G1 X82.288 Y80.306 E15.47298
G1 X82.712 Y80.306 E15.48612
G1 X83.061 Y80.279 E15.49694
G1 X83.413 Y80.194 E15.50814
G1 X83.747 Y80.056 E15.51934
G1 X84.056 Y79.867 E15.53054
G1 X84.332 Y79.631 E15.54175
G1 X84.567 Y79.356 E15.55295
G1 X84.756 Y79.047 E15.56415
G1 X84.894 Y78.713 E15.57535
G1 X84.979 Y78.361 E15.58656
G1 X85.006 Y78.012 E15.59738
G1 X85.006 Y71.988 E15.78379
G1 X84.979 Y71.639 E15.79461
G1 X84.894 Y71.287 E15.80581
G1 X84.756 Y70.953 E15.81701
G1 X84.567 Y70.644 E15.82821
G1 X84.297 Y70.328 E15.84107
G1 X89.488 Y70.328 E16.00168
G1 X90.231 Y70.386 E16.02474
G1 X90.943 Y70.557 E16.04742
G1 X91.621 Y70.838 E16.07010
G1 X92.246 Y71.221 E16.09278
G1 X92.803 Y71.697 E16.11546
G1 X93.279 Y72.254 E16.13814
G1 X93.662 Y72.879 E16.16082
G1 X93.943 Y73.557 E16.18350
G1 X94.114 Y74.269 E16.20618
G1 X94.172 Y75.012 E16.22924
G1 X94.172 Y84.988 E16.53790
G1 X94.114 Y85.731 E16.56096
G1 X93.943 Y86.443 E16.58364
G1 X93.662 Y87.121 E16.60632
G1 X93.279 Y87.746 E16.62900
G1 X92.803 Y88.303 E16.65167
G1 X92.246 Y88.779 E16.67436
G1 X91.621 Y89.162 E16.69704
G1 X91.030 Y89.407 E16.71681
G1 X90.490 Y89.012 F6000.000
G1 X86.975 Y87.969
G1 X80.659 Y81.653 F1200.000 E16.99385
G1 X81.873 Y81.982 E17.03288
G1 X87.861 Y87.969 E17.29549
G1 X88.747 Y87.969 E17.32296
G1 X82.786 Y82.008 E17.58440
G1 X83.571 Y81.908 E17.60894
G1 X89.617 Y87.954 E17.87413
G1 X90.376 Y87.828 E17.89800
G1 X84.243 Y81.694 E18.16702
G1 X84.826 Y81.392 E18.18741
G1 X90.988 Y87.553 E18.45763
G1 X91.498 Y87.178 E18.47728
G1 X85.334 Y81.014 E18.74763
G1 X85.772 Y80.566 E18.76705
G1 X91.917 Y86.710 E19.03652
