; generated by Slic3r 0.9.10b on 2013-07-02 at 18:34:21

; layer_height = 0.25
; perimeters = 3
; top_solid_layers = 3
; bottom_solid_layers = 3
; fill_density = 0.2
; perimeter_speed = 33
; infill_speed = 40
; travel_speed = 100
; nozzle_diameter = 0.35
; filament_diameter = 3
; extrusion_multiplier = 1
; perimeters extrusion width = 0.39mm
; infill extrusion width = 0.39mm
; solid infill extrusion width = 0.39mm
; top infill extrusion width = 0.39mm
; first layer extrusion width = 0.70mm

G21 ; set units to millimeters
; start G-code
;Stop the fan
M106
G4 P1000
;slow down to printing speed
M106 S50
; Red lights only during preheat
M42 S0 P28  ; Turn blue off.
M42 S0 P31  ; Turn main lights off.
M42 S255 P30  ; Turn red on
M42 S0 P29  ; Turn green off.
M104 S150; set hotend to a safe holding temp
M190 S60 ; set bed and wait for 110 degrees.
; setting the bed here allows us to set the lights to red for heating
;home the axis, lights blue during
M42 S255 P28  ; Turn blue on.
M42 S0 P31  ; Turn main lights off.
M42 S0 P30  ; Turn red off.
M42 S0 P29  ; Turn green off.
M104 S210; set hotend to printing temp.
G28 ; home all axes
; Red lights only again during wait for temperature
M42 S0 P28  ; Turn blue off.
M42 S0 P31  ; Turn main lights off.
M42 S255 P30  ; Turn red on
M42 S0 P29  ; Turn green off.
M109 S210; wait for extruder temp
; up to temp so blue and main lights on.
M42 S255 P28  ; Turn blue on.
M42 S255 P31  ; Turn main lights on.
M42 S0 P30  ; Turn red off.
M42 S0 P29  ; Turn green off.
G90 ; use absolute coordinates
G92 E0
M82 ; use absolute distances for extrusion
M106 S63
G1 F1500.000 E-3.00000
G1 Z0.600 F6000.000
G92 E0
G1 X27.185 Y65.985
G1 Z0.350
G1 F1500.000 E3.00000
G1 X27.885 Y65.755 F990.000 E3.02280
G1 X28.635 Y65.575 E3.04666
G1 X29.365 Y65.465 E3.06951
G1 X30.505 Y65.395 E3.10484
G1 X89.495 Y65.395 E4.93007
G1 X90.625 Y65.465 E4.96510
G1 X91.345 Y65.575 E4.98764
G1 X92.105 Y65.755 E5.01181
G1 X92.815 Y65.985 E5.03490
G1 X93.535 Y66.285 E5.05903
G1 X94.165 Y66.615 E5.08104
G1 X94.835 Y67.025 E5.10534
G1 X95.415 Y67.435 E5.12732
G1 X96.005 Y67.935 E5.15125
G1 X96.535 Y68.465 E5.17444
G1 X97.045 Y69.065 E5.19880
G1 X97.465 Y69.655 E5.22121
G1 X97.875 Y70.325 E5.24552
G1 X98.205 Y70.955 E5.26752
G1 X98.505 Y71.675 E5.29166
G1 X98.735 Y72.385 E5.31475
G1 X98.915 Y73.145 E5.33892
G1 X99.025 Y73.865 E5.36145
G1 X99.095 Y74.995 E5.39648
G1 X99.095 Y84.995 E5.70590
G1 X99.025 Y86.125 E5.74093
G1 X98.915 Y86.845 E5.76346
G1 X98.735 Y87.605 E5.78763
G1 X98.505 Y88.315 E5.81072
G1 X98.205 Y89.035 E5.83485
G1 X97.875 Y89.665 E5.85686
G1 X97.465 Y90.335 E5.88116
G1 X97.025 Y90.945 E5.90444
G1 X96.515 Y91.535 E5.92857
G1 X96.035 Y92.015 E5.94957
G1 X95.445 Y92.525 E5.97370
G1 X94.835 Y92.965 E5.99697
G1 X94.165 Y93.375 E6.02128
G1 X93.535 Y93.705 E6.04328
G1 X92.815 Y94.005 E6.06742
G1 X92.105 Y94.235 E6.09051
G1 X91.345 Y94.415 E6.11467
G1 X90.625 Y94.525 E6.13721
G1 X89.495 Y94.595 E6.17224
G1 X30.505 Y94.595 E7.99747
G1 X29.375 Y94.525 E8.03250
G1 X28.655 Y94.415 E8.05504
G1 X27.895 Y94.235 E8.07920
G1 X27.185 Y94.005 E8.10229
G1 X26.465 Y93.705 E8.12643
G1 X25.835 Y93.375 E8.14843
G1 X25.165 Y92.965 E8.17274
G1 X24.575 Y92.545 E8.19515
G1 X23.975 Y92.035 E8.21951
G1 X23.475 Y91.535 E8.24139
G1 X22.975 Y90.955 E8.26508
G1 X22.515 Y90.325 E8.28922
G1 X22.105 Y89.645 E8.31379
G1 X21.795 Y89.035 E8.33496
G1 X21.495 Y88.315 E8.35910
G1 X21.265 Y87.605 E8.38219
G1 X21.085 Y86.845 E8.40635
G1 X20.975 Y86.185 E8.42706
G1 X20.905 Y85.405 E8.45129
G1 X20.905 Y74.585 E8.78607
G1 X20.975 Y73.805 E8.81030
G1 X21.085 Y73.145 E8.83101
G1 X21.265 Y72.385 E8.85517
G1 X21.475 Y71.725 E8.87660
G1 X21.765 Y71.005 E8.90062
G1 X21.935 Y70.635 E8.91322
G1 X22.135 Y70.275 E8.92596
G1 X22.555 Y69.605 E8.95043
G1 X22.945 Y69.075 E8.97079
G1 X23.445 Y68.485 E8.99472
G1 X23.975 Y67.955 E9.01791
G1 X24.575 Y67.445 E9.04227
G1 X25.165 Y67.025 E9.06468
G1 X25.835 Y66.615 E9.08899
G1 X26.465 Y66.285 E9.11099
G1 X27.099 Y66.021 E9.13223
G1 F1500.000 E6.13223
G1 Z0.600 F6000.000
G92 E0
G1 X34.782 Y74.482
G1 Z0.350
G1 F1500.000 E3.00000
G1 X35.207 Y74.119 F495.000 E3.01729
G1 X35.683 Y73.827 E3.03458
G1 X36.200 Y73.613 E3.05187
G1 X36.743 Y73.483 E3.06915
G1 X37.239 Y73.444 E3.08455
G1 X37.761 Y73.444 E3.10071
G1 X38.257 Y73.483 E3.11610
G1 X38.800 Y73.613 E3.13339
G1 X39.317 Y73.827 E3.15068
G1 X39.793 Y74.119 E3.16796
G1 X40.218 Y74.482 E3.18526
G1 X40.581 Y74.907 E3.20255
G1 X40.873 Y75.383 E3.21983
G1 X41.087 Y75.900 E3.23712
G1 X41.217 Y76.443 E3.25441
G1 X41.256 Y76.939 E3.26980
G1 X41.256 Y83.061 E3.45924
G1 X41.217 Y83.557 E3.47463
G1 X41.087 Y84.100 E3.49192
G1 X40.873 Y84.617 E3.50921
G1 X40.581 Y85.093 E3.52649
G1 X40.218 Y85.518 E3.54378
G1 X39.793 Y85.881 E3.56107
G1 X39.317 Y86.173 E3.57835
G1 X38.800 Y86.387 E3.59566
G1 X38.257 Y86.517 E3.61293
G1 X37.761 Y86.556 E3.62832
G1 X37.239 Y86.556 E3.64450
G1 X36.743 Y86.517 E3.65988
G1 X36.200 Y86.387 E3.67716
G1 X35.683 Y86.173 E3.69446
G1 X35.207 Y85.881 E3.71175
G1 X34.782 Y85.518 E3.72904
G1 X34.419 Y85.093 E3.74633
G1 X34.197 Y84.731 E3.75947
G1 X34.127 Y84.617 E3.76361
G1 X33.913 Y84.100 E3.78090
G1 X33.783 Y83.557 E3.79819
G1 X33.744 Y83.061 E3.81358
G1 X33.744 Y76.939 E4.00302
G1 X33.783 Y76.443 E4.01841
G1 X33.913 Y75.900 E4.03569
G1 X34.127 Y75.383 E4.05299
G1 X34.419 Y74.907 E4.07027
G1 X34.721 Y74.553 E4.08466
G1 X35.170 Y74.990 F6000.000
G1 X35.575 Y74.626 F495.000 E4.10151
G1 X35.968 Y74.386 E4.11576
G1 X36.393 Y74.210 E4.13001
G1 X36.841 Y74.102 E4.14425
G1 X37.263 Y74.069 E4.15736
G1 X37.737 Y74.069 E4.17200
G1 X38.159 Y74.102 E4.18511
G1 X38.607 Y74.210 E4.19936
G1 X39.032 Y74.386 E4.21360
G1 X39.424 Y74.626 E4.22784
G1 X39.775 Y74.925 E4.24209
G1 X40.074 Y75.276 E4.25634
G1 X40.314 Y75.668 E4.27058
G1 X40.490 Y76.093 E4.28483
G1 X40.598 Y76.541 E4.29907
G1 X40.631 Y76.963 E4.31218
G1 X40.631 Y83.037 E4.50010
G1 X40.598 Y83.459 E4.51321
G1 X40.490 Y83.907 E4.52745
G1 X40.314 Y84.332 E4.54170
G1 X40.074 Y84.725 E4.55594
G1 X39.775 Y85.075 E4.57019
G1 X39.425 Y85.374 E4.58444
G1 X39.032 Y85.614 E4.59868
G1 X38.607 Y85.791 E4.61293
G1 X38.159 Y85.898 E4.62717
G1 X37.737 Y85.931 E4.64027
G1 X37.263 Y85.931 E4.65493
G1 X36.841 Y85.898 E4.66803
G1 X36.393 Y85.791 E4.68227
G1 X35.968 Y85.614 E4.69653
G1 X35.575 Y85.374 E4.71077
G1 X35.225 Y85.075 E4.72502
G1 X34.926 Y84.725 E4.73926
G1 X34.730 Y84.404 E4.75088
G1 X34.510 Y83.907 E4.76772
G1 X34.402 Y83.459 E4.78197
G1 X34.369 Y83.037 E4.79507
G1 X34.369 Y76.963 E4.98300
G1 X34.402 Y76.541 E4.99610
G1 X34.510 Y76.093 E5.01034
G1 X34.686 Y75.668 E5.02460
G1 X34.926 Y75.276 E5.03884
G1 X35.109 Y75.061 E5.04755
G1 X35.645 Y75.396 F6000.000
G1 X35.944 Y75.133 F495.000 E5.05984
G1 X36.253 Y74.944 E5.07104
G1 X36.587 Y74.806 E5.08225
G1 X36.939 Y74.721 E5.09345
G1 X37.288 Y74.694 E5.10427
G1 X37.712 Y74.694 E5.11741
G1 X38.061 Y74.721 E5.12823
G1 X38.413 Y74.806 E5.13943
G1 X38.747 Y74.944 E5.15063
G1 X39.056 Y75.133 E5.16183
G1 X39.332 Y75.368 E5.17304
G1 X39.567 Y75.644 E5.18424
G1 X39.756 Y75.953 E5.19544
G1 X39.894 Y76.287 E5.20664
G1 X39.979 Y76.639 E5.21785
G1 X40.006 Y76.988 E5.22867
G1 X40.006 Y83.012 E5.41507
G1 X39.979 Y83.361 E5.42590
G1 X39.894 Y83.713 E5.43710
G1 X39.756 Y84.047 E5.44830
G1 X39.567 Y84.356 E5.45950
G1 X39.332 Y84.631 E5.47070
G1 X39.056 Y84.867 E5.48191
G1 X38.747 Y85.056 E5.49311
G1 X38.413 Y85.194 E5.50431
G1 X38.061 Y85.279 E5.51551
G1 X37.712 Y85.306 E5.52633
G1 X37.288 Y85.306 E5.53947
G1 X36.939 Y85.279 E5.55029
G1 X36.587 Y85.194 E5.56149
G1 X36.252 Y85.056 E5.57270
G1 X35.944 Y84.867 E5.58390
G1 X35.668 Y84.631 E5.59510
G1 X35.433 Y84.356 E5.60630
G1 X35.263 Y84.078 E5.61641
G1 X35.106 Y83.713 E5.62869
G1 X35.021 Y83.361 E5.63990
G1 X34.994 Y83.012 E5.65072
G1 X34.994 Y76.988 E5.83713
G1 X35.021 Y76.639 E5.84795
G1 X35.106 Y76.287 E5.85915
G1 X35.244 Y75.952 E5.87035
G1 X35.433 Y75.644 E5.88155
G1 X35.584 Y75.467 E5.88875
G1 X36.027 Y75.505 F6000.000
G1 F1500.000 E2.88875
G1 Z0.600 F6000.000
G92 E0
G1 X56.244 Y76.939
G1 Z0.350
G1 F1500.000 E3.00000
G1 X56.283 Y76.443 F495.000 E3.01539
G1 X56.413 Y75.900 E3.03268
G1 X56.627 Y75.383 E3.04996
G1 X56.919 Y74.907 E3.06725
G1 X57.282 Y74.482 E3.08454
G1 X57.707 Y74.119 E3.10184
G1 X58.183 Y73.827 E3.11912
G1 X58.700 Y73.613 E3.13641
G1 X59.243 Y73.483 E3.15370
G1 X59.739 Y73.444 E3.16909
G1 X60.261 Y73.444 E3.18525
G1 X60.757 Y73.483 E3.20064
G1 X61.300 Y73.613 E3.21793
G1 X61.817 Y73.827 E3.23522
G1 X62.293 Y74.119 E3.25250
G1 X62.718 Y74.482 E3.26980
G1 X63.081 Y74.907 E3.28710
G1 X63.373 Y75.383 E3.30438
G1 X63.587 Y75.900 E3.32167
G1 X63.717 Y76.443 E3.33895
G1 X63.756 Y76.939 E3.35434
G1 X63.756 Y83.062 E3.54379
G1 X63.717 Y83.557 E3.55917
G1 X63.586 Y84.101 E3.57647
G1 X63.373 Y84.617 E3.59375
G1 X63.081 Y85.093 E3.61103
G1 X62.718 Y85.518 E3.62833
G1 X62.293 Y85.881 E3.64562
G1 X61.817 Y86.173 E3.66290
G1 X61.693 Y86.224 E3.66704
G1 X61.300 Y86.387 E3.68019
G1 X60.757 Y86.517 E3.69748
G1 X60.261 Y86.556 E3.71286
G1 X59.739 Y86.556 E3.72904
G1 X59.243 Y86.517 E3.74442
G1 X58.700 Y86.387 E3.76171
G1 X58.183 Y86.173 E3.77900
G1 X57.707 Y85.881 E3.79629
G1 X57.282 Y85.518 E3.81358
G1 X56.919 Y85.093 E3.83087
G1 X56.627 Y84.617 E3.84816
G1 X56.413 Y84.100 E3.86544
G1 X56.283 Y83.557 E3.88273
G1 X56.244 Y83.061 E3.89812
G1 X56.244 Y77.032 E4.08466
G1 X56.869 Y76.963 F6000.000
G1 X56.902 Y76.541 F495.000 E4.09776
G1 X57.010 Y76.093 E4.11201
G1 X57.186 Y75.668 E4.12626
G1 X57.426 Y75.276 E4.14050
G1 X57.725 Y74.925 E4.15475
G1 X58.076 Y74.626 E4.16900
G1 X58.468 Y74.386 E4.18324
G1 X58.893 Y74.210 E4.19748
G1 X59.341 Y74.102 E4.21173
G1 X59.763 Y74.069 E4.22484
G1 X60.237 Y74.069 E4.23948
G1 X60.659 Y74.102 E4.25259
G1 X61.107 Y74.210 E4.26683
G1 X61.532 Y74.386 E4.28108
G1 X61.924 Y74.626 E4.29532
G1 X62.275 Y74.925 E4.30957
G1 X62.574 Y75.276 E4.32382
G1 X62.814 Y75.668 E4.33806
G1 X62.990 Y76.093 E4.35231
G1 X63.098 Y76.541 E4.36656
G1 X63.131 Y76.963 E4.37966
G1 X63.131 Y83.037 E4.56759
G1 X63.098 Y83.459 E4.58069
G1 X62.990 Y83.907 E4.59494
G1 X62.814 Y84.332 E4.60918
G1 X62.574 Y84.725 E4.62342
G1 X62.275 Y85.075 E4.63767
G1 X61.924 Y85.374 E4.65192
G1 X61.532 Y85.614 E4.66616
G1 X61.107 Y85.790 E4.68041
G1 X60.659 Y85.898 E4.69465
G1 X60.237 Y85.931 E4.70775
G1 X59.763 Y85.931 E4.72241
G1 X59.341 Y85.898 E4.73551
G1 X58.893 Y85.790 E4.74976
G1 X58.468 Y85.614 E4.76401
G1 X58.075 Y85.374 E4.77825
G1 X57.725 Y85.075 E4.79250
G1 X57.426 Y84.725 E4.80674
G1 X57.186 Y84.332 E4.82099
G1 X57.010 Y83.907 E4.83523
G1 X56.902 Y83.459 E4.84947
G1 X56.869 Y83.037 E4.86258
G1 X56.869 Y77.057 E5.04760
G1 X57.494 Y76.988 F6000.000
G1 X57.521 Y76.639 F495.000 E5.05843
G1 X57.606 Y76.287 E5.06963
G1 X57.744 Y75.953 E5.08083
G1 X57.933 Y75.644 E5.09203
G1 X58.168 Y75.368 E5.10323
G1 X58.444 Y75.133 E5.11444
G1 X58.752 Y74.944 E5.12564
G1 X59.087 Y74.806 E5.13684
G1 X59.439 Y74.721 E5.14804
G1 X59.788 Y74.694 E5.15887
G1 X60.212 Y74.694 E5.17200
G1 X60.561 Y74.721 E5.18282
G1 X60.913 Y74.806 E5.19402
G1 X61.247 Y74.944 E5.20523
G1 X61.556 Y75.133 E5.21643
G1 X61.832 Y75.368 E5.22763
G1 X62.067 Y75.644 E5.23884
G1 X62.256 Y75.953 E5.25003
G1 X62.394 Y76.287 E5.26124
G1 X62.479 Y76.639 E5.27244
G1 X62.506 Y76.988 E5.28326
G1 X62.506 Y83.012 E5.46967
G1 X62.479 Y83.361 E5.48049
G1 X62.394 Y83.713 E5.49169
G1 X62.256 Y84.047 E5.50289
G1 X62.067 Y84.356 E5.51410
G1 X61.831 Y84.631 E5.52530
G1 X61.556 Y84.867 E5.53650
G1 X61.248 Y85.056 E5.54770
G1 X60.913 Y85.194 E5.55891
G1 X60.561 Y85.279 E5.57011
G1 X60.212 Y85.306 E5.58093
G1 X59.788 Y85.306 E5.59406
G1 X59.439 Y85.279 E5.60489
G1 X59.087 Y85.194 E5.61609
G1 X58.752 Y85.056 E5.62729
G1 X58.444 Y84.867 E5.63849
G1 X58.168 Y84.631 E5.64970
G1 X57.933 Y84.356 E5.66090
G1 X57.744 Y84.047 E5.67210
G1 X57.606 Y83.713 E5.68330
G1 X57.521 Y83.361 E5.69450
G1 X57.494 Y83.012 E5.70533
G1 X57.494 Y77.081 E5.88883
G1 X57.805 Y76.829 F6000.000
G1 F1500.000 E2.88883
G1 Z0.600 F6000.000
G92 E0
G1 X78.744 Y76.939
G1 Z0.350
G1 F1500.000 E3.00000
G1 X78.783 Y76.443 F495.000 E3.01539
G1 X78.914 Y75.900 E3.03268
G1 X79.127 Y75.383 E3.04997
G1 X79.419 Y74.907 E3.06725
G1 X79.782 Y74.482 E3.08454
G1 X80.207 Y74.119 E3.10184
G1 X80.683 Y73.827 E3.11912
G1 X81.200 Y73.613 E3.13641
G1 X81.743 Y73.483 E3.15370
G1 X82.239 Y73.444 E3.16909
G1 X82.761 Y73.444 E3.18525
G1 X83.257 Y73.483 E3.20064
G1 X83.800 Y73.613 E3.21793
G1 X84.317 Y73.827 E3.23522
G1 X84.793 Y74.119 E3.25250
G1 X85.218 Y74.482 E3.26980
G1 X85.581 Y74.907 E3.28710
G1 X85.873 Y75.383 E3.30438
G1 X86.087 Y75.900 E3.32167
G1 X86.217 Y76.443 E3.33895
G1 X86.256 Y76.939 E3.35434
G1 X86.256 Y83.062 E3.54379
G1 X86.217 Y83.557 E3.55917
G1 X86.086 Y84.101 E3.57647
G1 X85.873 Y84.617 E3.59375
G1 X85.581 Y85.093 E3.61103
G1 X85.218 Y85.518 E3.62833
G1 X84.793 Y85.881 E3.64562
G1 X84.317 Y86.173 E3.66290
G1 X84.193 Y86.224 E3.66704
G1 X83.800 Y86.387 E3.68019
G1 X83.257 Y86.517 E3.69748
G1 X82.761 Y86.556 E3.71286
G1 X82.239 Y86.556 E3.72904
G1 X81.743 Y86.517 E3.74442
G1 X81.200 Y86.387 E3.76171
G1 X80.683 Y86.173 E3.77900
G1 X80.207 Y85.881 E3.79629
G1 X79.782 Y85.518 E3.81358
G1 X79.419 Y85.093 E3.83087
G1 X79.127 Y84.616 E3.84816
G1 X78.913 Y84.100 E3.86544
G1 X78.783 Y83.557 E3.88274
G1 X78.744 Y83.061 E3.89813
G1 X78.744 Y77.032 E4.08466
G1 X79.369 Y76.963 F6000.000
G1 X79.402 Y76.541 F495.000 E4.09777
G1 X79.510 Y76.093 E4.11201
G1 X79.686 Y75.668 E4.12626
G1 X79.926 Y75.276 E4.14050
G1 X80.225 Y74.925 E4.15475
G1 X80.576 Y74.626 E4.16900
G1 X80.968 Y74.386 E4.18324
G1 X81.393 Y74.210 E4.19748
G1 X81.841 Y74.102 E4.21173
G1 X82.263 Y74.069 E4.22484
G1 X82.737 Y74.069 E4.23948
G1 X83.159 Y74.102 E4.25259
G1 X83.607 Y74.210 E4.26683
G1 X84.032 Y74.386 E4.28108
G1 X84.424 Y74.626 E4.29532
G1 X84.775 Y74.925 E4.30957
G1 X85.074 Y75.276 E4.32382
G1 X85.314 Y75.668 E4.33806
G1 X85.490 Y76.093 E4.35231
G1 X85.598 Y76.541 E4.36656
G1 X85.631 Y76.963 E4.37966
G1 X85.631 Y83.037 E4.56759
G1 X85.598 Y83.459 E4.58069
G1 X85.490 Y83.907 E4.59494
G1 X85.314 Y84.332 E4.60918
G1 X85.074 Y84.725 E4.62342
G1 X84.775 Y85.075 E4.63767
G1 X84.424 Y85.374 E4.65192
G1 X84.032 Y85.614 E4.66616
G1 X83.607 Y85.790 E4.68041
G1 X83.159 Y85.898 E4.69465
G1 X82.737 Y85.931 E4.70775
G1 X82.263 Y85.931 E4.72241
G1 X81.841 Y85.898 E4.73551
G1 X81.393 Y85.790 E4.74976
G1 X80.968 Y85.614 E4.76400
G1 X80.575 Y85.374 E4.77825
G1 X80.290 Y85.130 E4.78987
G1 X79.926 Y84.725 E4.80671
G1 X79.686 Y84.332 E4.82096
G1 X79.510 Y83.907 E4.83520
G1 X79.402 Y83.459 E4.84945
G1 X79.369 Y83.037 E4.86256
G1 X79.369 Y77.057 E5.04758
G1 X79.994 Y76.988 F6000.000
G1 X80.021 Y76.639 F495.000 E5.05840
G1 X80.106 Y76.287 E5.06960
G1 X80.244 Y75.952 E5.08080
G1 X80.433 Y75.644 E5.09200
G1 X80.668 Y75.368 E5.10321
G1 X80.944 Y75.133 E5.11441
G1 X81.253 Y74.944 E5.12561
G1 X81.587 Y74.806 E5.13681
G1 X81.939 Y74.721 E5.14801
G1 X82.288 Y74.694 E5.15884
G1 X82.712 Y74.694 E5.17197
G1 X83.061 Y74.721 E5.18279
G1 X83.413 Y74.806 E5.19400
G1 X83.747 Y74.944 E5.20520
G1 X84.056 Y75.133 E5.21640
G1 X84.332 Y75.368 E5.22760
G1 X84.567 Y75.644 E5.23881
G1 X84.756 Y75.953 E5.25001
G1 X84.894 Y76.287 E5.26121
G1 X84.979 Y76.639 E5.27241
G1 X85.006 Y76.988 E5.28323
G1 X85.006 Y83.012 E5.46964
G1 X84.979 Y83.361 E5.48046
G1 X84.894 Y83.713 E5.49167
G1 X84.756 Y84.047 E5.50287
G1 X84.567 Y84.356 E5.51407
G1 X84.331 Y84.631 E5.52527
G1 X84.056 Y84.867 E5.53647
G1 X83.748 Y85.056 E5.54767
G1 X83.413 Y85.194 E5.55888
G1 X83.061 Y85.279 E5.57008
G1 X82.712 Y85.306 E5.58090
G1 X82.288 Y85.306 E5.59404
G1 X81.939 Y85.279 E5.60486
G1 X81.587 Y85.194 E5.61606
G1 X81.253 Y85.056 E5.62726
G1 X80.944 Y84.867 E5.63846
G1 X80.696 Y84.655 E5.64857
G1 X80.433 Y84.356 E5.66086
G1 X80.244 Y84.047 E5.67206
G1 X80.106 Y83.713 E5.68326
G1 X80.021 Y83.361 E5.69446
G1 X79.994 Y83.012 E5.70529
G1 X79.994 Y77.081 E5.88879
G1 X80.305 Y76.829 F6000.000
G1 F1500.000 E2.88879
G1 Z0.600 F6000.000
G92 E0
G1 X89.439 Y71.578
G1 Z0.350
G1 F1500.000 E3.00000
G1 X90.035 Y71.625 F990.000 E3.01850
G1 X90.556 Y71.750 E3.03509
G1 X91.052 Y71.955 E3.05169
