; generated by Slic3r 0.9.10b on 2013-06-28 at 07:22:30

; layer_height = 0.25
; perimeters = 3
; top_solid_layers = 3
; bottom_solid_layers = 3
; fill_density = 0.2
; perimeter_speed = 33
; infill_speed = 40
; travel_speed = 100
; nozzle_diameter = 0.35
; filament_diameter = 3
; extrusion_multiplier = 1
; perimeters extrusion width = 0.39mm
; infill extrusion width = 0.39mm
; solid infill extrusion width = 0.39mm
; top infill extrusion width = 0.39mm
; first layer extrusion width = 0.70mm

G21 ; set units to millimeters
; start G-code
;Stop the fan
M106
G4 P1000
;slow down to printing speed
M106 S50
; Red lights only during preheat
M42 S0 P28  ; Turn blue off.
M42 S0 P31  ; Turn main lights off.
M42 S255 P30  ; Turn red on
M42 S0 P29  ; Turn green off.
M104 S150; set hotend to a safe holding temp
M190 S60 ; set bed and wait for 110 degrees.
; setting the bed here allows us to set the lights to red for heating
;home the axis, lights blue during
M42 S255 P28  ; Turn blue on.
M42 S0 P31  ; Turn main lights off.
M42 S0 P30  ; Turn red off.
M42 S0 P29  ; Turn green off.
M104 S210; set hotend to printing temp.
G28 ; home all axes
; Red lights only again during wait for temperature
M42 S0 P28  ; Turn blue off.
M42 S0 P31  ; Turn main lights off.
M42 S255 P30  ; Turn red on
M42 S0 P29  ; Turn green off.
M109 S210; wait for extruder temp
; up to temp so blue and main lights on.
M42 S255 P28  ; Turn blue on.
M42 S255 P31  ; Turn main lights on.
M42 S0 P30  ; Turn red off.
M42 S0 P29  ; Turn green off.
G90 ; use absolute coordinates
G92 E0
M82 ; use absolute distances for extrusion
M106 S63
G1 F1500.000 E-3.00000
G1 Z0.700 F6000.000
G92 E0
G1 X8.690 Y30.900
G1 Z0.450
G1 F1500.000 E3.00000
G1 X9.790 Y30.650 F990.000 E3.03490
G1 X60.290 Y25.650 E4.60508
G1 X60.750 Y25.630 E4.61933
G1 X104.750 Y25.630 E5.98074
G1 X105.870 Y25.760 E6.01563
G1 X106.930 Y26.170 E6.05080
G1 X107.860 Y26.820 E6.08590
G1 X108.590 Y27.680 E6.12081
G1 X109.100 Y28.690 E6.15582
G1 X109.350 Y29.790 E6.19072
G1 X114.350 Y80.290 E7.76090
G1 X114.370 Y80.750 E7.77514
G1 X114.370 Y124.750 E9.13656
G1 X114.240 Y125.870 E9.17145
G1 X113.830 Y126.930 E9.20661
G1 X113.180 Y127.860 E9.24172
G1 X112.320 Y128.590 E9.27662
G1 X111.310 Y129.100 E9.31163
G1 X110.210 Y129.350 E9.34654
G1 X59.710 Y134.350 E10.91671
G1 X59.250 Y134.370 E10.93096
G1 X15.250 Y134.370 E12.29238
G1 X14.130 Y134.240 E12.32726
G1 X13.070 Y133.830 E12.36243
G1 X12.140 Y133.180 E12.39754
G1 X11.410 Y132.320 E12.43244
G1 X10.900 Y131.310 E12.46745
G1 X10.650 Y130.210 E12.50235
G1 X5.650 Y79.710 E14.07253
G1 X5.630 Y79.250 E14.08678
G1 X5.630 Y35.250 E15.44819
G1 X5.760 Y34.130 E15.48308
G1 X6.170 Y33.070 E15.51825
G1 X6.820 Y32.140 E15.55335
G1 X7.680 Y31.410 E15.58826
G1 X8.606 Y30.942 E15.62037
G1 F1500.000 E12.62037
G1 Z0.700 F6000.000
G92 E0
G1 X37.636 Y39.650
G1 Z0.450
G1 F1500.000 E3.00000
G1 X38.026 Y38.884 F495.000 E3.02661
G1 X38.634 Y38.276 E3.05322
G1 X39.401 Y37.886 E3.07984
G1 X40.250 Y37.751 E3.10645
G1 X41.099 Y37.886 E3.13306
G1 X41.866 Y38.276 E3.15967
G1 X42.474 Y38.884 E3.18628
G1 X42.864 Y39.650 E3.21289
G1 X42.999 Y40.500 E3.23951
G1 X42.864 Y41.350 E3.26612
G1 X42.474 Y42.116 E3.29273
G1 X41.866 Y42.724 E3.31935
G1 X41.099 Y43.114 E3.34596
G1 X40.250 Y43.249 E3.37257
G1 X39.401 Y43.114 E3.39918
G1 X38.634 Y42.724 E3.42579
G1 X38.026 Y42.116 E3.45240
G1 X37.636 Y41.350 E3.47901
G1 X37.501 Y40.500 E3.50563
G1 X37.621 Y39.743 E3.52934
G1 X38.237 Y39.846 F6000.000
G1 X38.538 Y39.256 F495.000 E3.54983
G1 X39.006 Y38.788 E3.57031
G1 X39.596 Y38.487 E3.59080
G1 X40.250 Y38.384 E3.61129
G1 X40.904 Y38.487 E3.63178
G1 X41.494 Y38.788 E3.65226
G1 X41.962 Y39.256 E3.67275
G1 X42.263 Y39.846 E3.69324
G1 X42.366 Y40.500 E3.71373
G1 X42.263 Y41.154 E3.73421
G1 X41.962 Y41.744 E3.75470
G1 X41.494 Y42.212 E3.77519
G1 X40.904 Y42.513 E3.79567
G1 X40.250 Y42.616 E3.81616
G1 X39.596 Y42.513 E3.83665
G1 X39.006 Y42.212 E3.85714
G1 X38.538 Y41.744 E3.87762
G1 X38.237 Y41.154 E3.89811
G1 X38.134 Y40.500 E3.91860
G1 X38.223 Y39.939 E3.93619
G1 X38.854 Y39.748 F6000.000
G1 F1500.000 E0.93619
G1 Z0.700 F6000.000
G92 E0
G1 X76.868 Y40.500
G1 Z0.450
G1 F1500.000 E3.00000
G1 X77.034 Y39.455 F495.000 E3.03274
G1 X77.514 Y38.512 E3.06548
G1 X78.262 Y37.764 E3.09821
G1 X79.205 Y37.284 E3.13095
G1 X80.250 Y37.118 E3.16368
G1 X81.295 Y37.284 E3.19642
G1 X82.238 Y37.764 E3.22916
G1 X82.986 Y38.512 E3.26189
G1 X83.466 Y39.455 E3.29463
G1 X83.632 Y40.500 E3.32737
G1 X83.466 Y41.545 E3.36011
G1 X82.986 Y42.488 E3.39284
G1 X82.238 Y43.236 E3.42558
G1 X81.295 Y43.716 E3.45831
G1 X80.250 Y43.882 E3.49105
G1 X79.205 Y43.716 E3.52379
G1 X78.262 Y43.236 E3.55652
G1 X77.514 Y42.488 E3.58925
G1 X77.034 Y41.545 E3.62200
G1 X76.883 Y40.593 E3.65183
G1 X77.501 Y40.500 F6000.000
G1 X77.636 Y39.651 F495.000 E3.67844
G1 X78.026 Y38.884 E3.70506
G1 X78.634 Y38.276 E3.73167
G1 X79.401 Y37.886 E3.75828
G1 X80.250 Y37.751 E3.78489
G1 X81.099 Y37.886 E3.81150
G1 X81.866 Y38.276 E3.83812
G1 X82.474 Y38.884 E3.86473
G1 X82.864 Y39.650 E3.89134
G1 X82.999 Y40.500 E3.91795
G1 X82.864 Y41.350 E3.94457
G1 X82.474 Y42.116 E3.97118
G1 X81.866 Y42.724 E3.99779
G1 X81.099 Y43.114 E4.02440
G1 X80.250 Y43.249 E4.05101
G1 X79.401 Y43.114 E4.07762
G1 X78.634 Y42.724 E4.10424
G1 X78.026 Y42.116 E4.13084
G1 X77.636 Y41.349 E4.15746
G1 X77.516 Y40.593 E4.18117
G1 X78.134 Y40.500 F6000.000
G1 X78.237 Y39.846 F495.000 E4.20166
G1 X78.538 Y39.256 E4.22215
G1 X79.006 Y38.788 E4.24263
G1 X79.596 Y38.487 E4.26312
G1 X80.250 Y38.384 E4.28361
G1 X80.904 Y38.487 E4.30410
G1 X81.494 Y38.788 E4.32458
G1 X81.962 Y39.256 E4.34507
G1 X82.263 Y39.846 E4.36556
G1 X82.366 Y40.500 E4.38604
G1 X82.263 Y41.154 E4.40653
G1 X81.962 Y41.744 E4.42702
G1 X81.494 Y42.212 E4.44751
G1 X80.904 Y42.513 E4.46799
G1 X80.250 Y42.616 E4.48848
G1 X79.596 Y42.513 E4.50897
G1 X79.006 Y42.212 E4.52946
G1 X78.538 Y41.744 E4.54994
G1 X78.237 Y41.154 E4.57043
G1 X78.148 Y40.593 E4.58802
G1 X78.690 Y40.216 F6000.000
G1 F1500.000 E1.58802
G1 Z0.700 F6000.000
G92 E0
G1 X80.250 Y117.251
G1 Z0.450
G1 F1500.000 E3.00000
G1 X81.099 Y117.385 F495.000 E3.02661
G1 X81.866 Y117.776 E3.05322
G1 X82.474 Y118.384 E3.07983
G1 X82.864 Y119.150 E3.10644
G1 X82.999 Y120.000 E3.13306
G1 X82.864 Y120.850 E3.15967
G1 X82.474 Y121.616 E3.18628
G1 X81.866 Y122.224 E3.21289
G1 X81.099 Y122.615 E3.23951
G1 X80.250 Y122.749 E3.26611
G1 X79.400 Y122.614 E3.29273
G1 X78.634 Y122.224 E3.31934
G1 X78.026 Y121.616 E3.34595
G1 X77.635 Y120.849 E3.37257
G1 X77.501 Y120.000 E3.39918
G1 X77.635 Y119.151 E3.42579
G1 X78.026 Y118.384 E3.45240
G1 X78.634 Y117.776 E3.47901
G1 X79.400 Y117.386 E3.50562
G1 X80.157 Y117.266 E3.52934
G1 X80.250 Y117.884 F6000.000
G1 X80.904 Y117.987 F495.000 E3.54982
G1 X81.494 Y118.288 E3.57031
G1 X81.962 Y118.756 E3.59080
G1 X82.263 Y119.346 E3.61129
G1 X82.366 Y120.000 E3.63177
G1 X82.263 Y120.654 E3.65226
G1 X81.962 Y121.244 E3.67275
G1 X81.494 Y121.712 E3.69323
G1 X80.904 Y122.013 E3.71372
G1 X80.250 Y122.116 E3.73421
G1 X79.596 Y122.013 E3.75470
G1 X79.006 Y121.712 E3.77519
G1 X78.538 Y121.244 E3.79567
G1 X78.237 Y120.654 E3.81616
G1 X78.134 Y120.000 E3.83665
G1 X78.237 Y119.346 E3.85713
G1 X78.538 Y118.756 E3.87762
G1 X79.006 Y118.288 E3.89811
G1 X79.596 Y117.987 E3.91859
G1 X80.157 Y117.898 E3.93618
G1 X80.534 Y118.440 F6000.000
G1 F1500.000 E0.93618
G1 Z0.700 F6000.000
G92 E0
G1 X43.632 Y120.000
G1 Z0.450
G1 F1500.000 E3.00000
G1 X43.466 Y121.045 F495.000 E3.03274
G1 X42.986 Y121.988 E3.06547
G1 X42.238 Y122.736 E3.09821
G1 X41.295 Y123.216 E3.13095
G1 X40.250 Y123.382 E3.16368
G1 X39.205 Y123.216 E3.19642
G1 X38.262 Y122.736 E3.22916
G1 X37.514 Y121.988 E3.26189
G1 X37.034 Y121.045 E3.29463
G1 X36.868 Y120.000 E3.32737
G1 X37.034 Y118.955 E3.36010
G1 X37.514 Y118.012 E3.39284
G1 X38.262 Y117.264 E3.42557
G1 X39.205 Y116.784 E3.45831
G1 X40.250 Y116.618 E3.49105
G1 X41.295 Y116.784 E3.52378
G1 X42.238 Y117.264 E3.55652
G1 X42.986 Y118.012 E3.58926
G1 X43.466 Y118.955 E3.62199
G1 X43.617 Y119.907 E3.65183
G1 X42.999 Y120.000 F6000.000
G1 X42.864 Y120.850 F495.000 E3.67845
G1 X42.474 Y121.616 E3.70506
G1 X41.866 Y122.224 E3.73167
G1 X41.099 Y122.615 E3.75828
G1 X40.250 Y122.749 E3.78489
G1 X39.400 Y122.614 E3.81150
G1 X38.634 Y122.224 E3.83812
G1 X38.026 Y121.616 E3.86473
G1 X37.636 Y120.850 E3.89134
G1 X37.501 Y120.000 E3.91795
G1 X37.636 Y119.150 E3.94456
G1 X38.026 Y118.384 E3.97118
G1 X38.634 Y117.776 E3.99779
G1 X39.400 Y117.386 E4.02440
G1 X40.250 Y117.251 E4.05101
G1 X41.099 Y117.385 E4.07762
G1 X41.866 Y117.776 E4.10424
G1 X42.474 Y118.384 E4.13085
G1 X42.864 Y119.150 E4.15746
G1 X42.984 Y119.907 E4.18117
G1 X42.366 Y120.000 F6000.000
G1 X42.263 Y120.654 F495.000 E4.20166
G1 X41.962 Y121.244 E4.22215
G1 X41.494 Y121.712 E4.24263
G1 X40.904 Y122.013 E4.26312
G1 X40.250 Y122.116 E4.28361
G1 X39.596 Y122.013 E4.30409
G1 X39.006 Y121.712 E4.32458
G1 X38.538 Y121.244 E4.34507
G1 X38.237 Y120.654 E4.36556
G1 X38.134 Y120.000 E4.38604
G1 X38.237 Y119.346 E4.40653
G1 X38.538 Y118.756 E4.42702
G1 X39.006 Y118.288 E4.44750
G1 X39.596 Y117.987 E4.46799
G1 X40.250 Y117.884 E4.48848
G1 X40.904 Y117.987 E4.50896
G1 X41.494 Y118.288 E4.52945
G1 X41.962 Y118.756 E4.54994
G1 X42.263 Y119.346 E4.57043
G1 X42.352 Y119.907 E4.58801
G1 X41.810 Y120.284 F6000.000
G1 F1500.000 E1.58801
G1 Z0.700 F6000.000
G92 E0
G1 X57.688 Y123.188
G1 Z0.450
G1 F1500.000 E3.00000
G1 X57.688 Y128.188 F990.000 E3.15471
G1 X16.812 Y128.188 E4.41945
G1 X16.812 Y77.688 E5.98199
G1 X11.812 Y77.688 E6.13669
G1 X11.812 Y36.812 E7.40144
G1 X39.568 Y36.812 E8.26024
G1 X39.629 Y37.068 E8.26837
G1 X38.262 Y37.764 E8.31584
G1 X37.514 Y38.512 E8.34857
G1 X37.034 Y39.455 E8.38131
G1 X36.868 Y40.500 E8.41405
G1 X37.034 Y41.545 E8.44679
G1 X37.514 Y42.488 E8.47953
G1 X38.262 Y43.236 E8.51226
G1 X39.205 Y43.716 E8.54500
G1 X40.250 Y43.882 E8.57773
G1 X41.295 Y43.716 E8.61047
G1 X42.238 Y43.236 E8.64320
G1 X42.986 Y42.488 E8.67594
G1 X43.466 Y41.545 E8.70868
G1 X43.632 Y40.500 E8.74142
G1 X43.466 Y39.455 E8.77416
G1 X42.986 Y38.512 E8.80689
G1 X42.238 Y37.764 E8.83963
G1 X40.871 Y37.068 E8.88710
G1 X40.932 Y36.812 E8.89523
G1 X62.312 Y36.812 E9.55676
G1 X62.312 Y31.812 E9.71147
G1 X103.188 Y31.812 E10.97621
G1 X103.188 Y82.312 E12.53875
G1 X108.188 Y82.312 E12.69346
G1 X108.188 Y123.188 E13.95820
G1 X81.786 Y123.188 E14.77511
G1 X82.986 Y121.988 E14.82763
G1 X83.466 Y121.045 E14.86036
G1 X83.632 Y120.000 E14.89310
G1 X83.466 Y118.955 E14.92584
G1 X82.986 Y118.012 E14.95857
G1 X82.238 Y117.264 E14.99130
G1 X81.295 Y116.784 E15.02405
G1 X80.250 Y116.618 E15.05678
G1 X79.205 Y116.784 E15.08952
G1 X78.262 Y117.264 E15.12226
G1 X77.514 Y118.012 E15.15499
G1 X77.034 Y118.955 E15.18773
G1 X76.868 Y120.000 E15.22047
G1 X77.034 Y121.045 E15.25320
G1 X77.514 Y121.988 E15.28595
G1 X78.714 Y123.188 E15.33845
G1 X57.782 Y123.188 E15.98614
G1 X11.187 Y36.187 F6000.000
G1 X61.687 Y36.187 F990.000 E17.54868
G1 X61.687 Y31.187 E17.70338
G1 X103.813 Y31.187 E19.00680
G1 X103.813 Y81.687 E20.56933
G1 X108.813 Y81.687 E20.72404
G1 X108.813 Y123.813 E22.02745
G1 X58.313 Y123.813 E23.58999
G1 X58.313 Y128.813 E23.74469
G1 X16.187 Y128.813 E25.04811
G1 X16.187 Y78.313 E26.61064
G1 X11.187 Y78.313 E26.76535
G1 X11.187 Y36.281 E28.06586
G1 X10.562 Y35.562 F6000.000
G1 X61.062 Y35.562 F594.000 E29.62840
G1 X61.062 Y30.562 E29.78311
G1 X104.438 Y30.562 E31.12519
G1 X104.438 Y81.062 E32.68773
G1 X109.438 Y81.062 E32.84243
G1 X109.438 Y124.438 E34.18452
G1 X58.938 Y124.438 E35.74705
G1 X58.938 Y129.438 E35.90176
G1 X15.562 Y129.438 E37.24384
G1 X15.562 Y78.938 E38.80638
G1 X10.562 Y78.938 E38.96109
G1 X10.562 Y35.656 E40.30027
G1 X11.104 Y35.875 F6000.000
G1 X37.870 Y37.515
G1 X37.620 Y37.265 F1200.000 E40.31124
G1 X36.735 Y37.265 E40.33866
G1 X37.428 Y37.958 E40.36902
G1 X37.037 Y38.452 E40.38854
G1 X35.850 Y37.265 E40.44054
G1 X34.965 Y37.265 E40.46796
G1 X36.738 Y39.038 E40.54565
G1 X36.534 Y39.718 E40.56766
G1 X34.080 Y37.265 E40.67517
G1 X33.195 Y37.265 E40.70259
G1 X36.412 Y40.482 E40.84358
G1 X36.572 Y41.527 E40.87633
G1 X32.310 Y37.265 E41.06311
G1 X31.425 Y37.265 E41.09053
G1 X107.735 Y113.575 E44.43446
G1 X107.735 Y114.460 E44.46188
G1 X30.540 Y37.265 E47.84459
G1 X29.655 Y37.265 E47.87201
G1 X107.735 Y115.345 E51.29349
G1 X107.735 Y116.230 E51.32092
G1 X28.770 Y37.265 E54.78119
G1 X27.885 Y37.265 E54.80861
G1 X107.735 Y117.115 E58.30766
G1 X107.735 Y118.000 E58.33508
G1 X27.000 Y37.265 E61.87291
G1 X26.115 Y37.265 E61.90033
G1 X107.735 Y118.885 E65.47694
G1 X107.735 Y119.770 E65.50436
G1 X25.230 Y37.265 E69.11976
G1 X24.345 Y37.265 E69.14718
G1 X107.735 Y120.655 E72.80135
G1 X107.735 Y121.540 E72.82877
G1 X23.460 Y37.265 E76.52173
G1 X22.575 Y37.265 E76.54915
G1 X107.735 Y122.425 E80.28088
G1 X107.160 Y122.735 E80.30112
G1 X21.690 Y37.265 E84.04644
G1 X20.805 Y37.265 E84.07387
G1 X106.275 Y122.735 E87.81919
G1 X105.390 Y122.735 E87.84661
G1 X19.920 Y37.265 E91.59193
G1 X19.035 Y37.265 E91.61935
G1 X104.505 Y122.735 E95.36467
G1 X103.620 Y122.735 E95.39210
G1 X18.150 Y37.265 E99.13742
G1 X17.265 Y37.265 E99.16484
G1 X102.735 Y122.735 E102.91016
G1 X101.850 Y122.735 E102.93758
G1 X16.380 Y37.265 E106.68290
G1 X15.495 Y37.265 E106.71033
G1 X100.965 Y122.735 E110.45565
G1 X100.080 Y122.735 E110.48307
G1 X14.610 Y37.265 E114.22839
G1 X13.725 Y37.265 E114.25581
G1 X99.195 Y122.735 E118.00113
G1 X98.310 Y122.735 E118.02856
G1 X12.840 Y37.265 E121.77388
G1 X12.265 Y37.575 E121.79412
G1 X97.425 Y122.735 E125.52586
G1 X96.540 Y122.735 E125.55328
G1 X12.265 Y38.460 E129.24624
G1 X12.265 Y39.345 E129.27367
G1 X95.655 Y122.735 E132.92785
G1 X94.770 Y122.735 E132.95527
G1 X12.265 Y40.230 E136.57067
G1 X12.265 Y41.115 E136.59809
G1 X93.885 Y122.735 E140.17471
G1 X93.000 Y122.735 E140.20213
G1 X12.265 Y42.000 E143.73997
G1 X12.265 Y42.885 E143.76739
G1 X92.115 Y122.735 E147.26645
G1 X91.230 Y122.735 E147.29387
G1 X12.265 Y43.770 E150.75414
G1 X12.265 Y44.655 E150.78156
G1 X90.345 Y122.735 E154.20306
G1 X89.460 Y122.735 E154.23048
G1 X12.265 Y45.540 E157.61319
G1 X12.265 Y46.425 E157.64062
G1 X88.575 Y122.735 E160.98455
G1 X87.690 Y122.735 E161.01197
G1 X83.927 Y118.972 E161.17685
G1 X84.088 Y120.017 F6000.000
G1 X86.805 Y122.735 F1200.000 E161.29593
G1 X85.920 Y122.735 E161.32335
G1 X83.967 Y120.781 E161.40895
G1 X83.762 Y121.462 E161.43097
G1 X85.035 Y122.735 E161.48675
G1 X84.150 Y122.735 E161.51418
G1 X83.463 Y122.048 E161.54427
G1 X83.165 Y122.634 E161.56465
G1 X83.265 Y122.735 E161.56905
G1 X81.278 Y116.322 F6000.000
G1 X12.265 Y47.310 F1200.000 E164.59321
G1 X12.265 Y48.195 E164.62063
G1 X80.233 Y116.163 E167.59900
G1 X79.469 Y116.283 E167.62297
G1 X12.265 Y49.080 E170.56786
G1 X12.265 Y49.965 E170.59528
G1 X78.788 Y116.488 E173.51034
G1 X78.202 Y116.787 E173.53073
G1 X12.265 Y50.850 E176.42011
G1 X12.265 Y51.735 E176.44753
G1 X77.708 Y117.178 E179.31527
G1 X77.266 Y117.620 E179.33466
G1 X12.265 Y52.620 E182.18301
G1 X12.265 Y53.505 E182.21043
G1 X76.927 Y118.167 E185.04394
G1 X76.628 Y118.753 E185.06433
G1 X12.265 Y54.390 E187.88476
G1 X12.265 Y55.275 E187.91218
G1 X76.489 Y119.499 E190.72650
G1 X76.467 Y120.362 E190.75325
G1 X12.265 Y56.160 E193.56660
G1 X12.265 Y57.045 E193.59402
G1 X76.796 Y121.576 E196.42180
G1 X77.070 Y122.735 E196.45870
G1 X12.265 Y57.930 E199.29848
G1 X12.265 Y58.815 E199.32590
G1 X76.185 Y122.735 E202.12690
G1 X75.300 Y122.735 E202.15432
G1 X12.265 Y59.700 E204.91654
G1 X12.265 Y60.585 E204.94396
G1 X74.415 Y122.735 E207.66740
G1 X73.530 Y122.735 E207.69482
G1 X12.265 Y61.470 E210.37948
G1 X12.265 Y62.355 E210.40690
G1 X72.645 Y122.735 E213.05278
G1 X71.760 Y122.735 E213.08020
G1 X12.265 Y63.240 E215.68730
G1 X12.265 Y64.125 E215.71472
G1 X70.875 Y122.735 E218.28303
G1 X69.990 Y122.735 E218.31046
G1 X12.265 Y65.010 E220.83999
G1 X12.265 Y65.895 E220.86741
G1 X69.105 Y122.735 E223.35816
G1 X68.220 Y122.735 E223.38558
G1 X12.265 Y66.780 E225.83756
G1 X12.265 Y67.665 E225.86498
G1 X67.335 Y122.735 E228.27817
G1 X66.450 Y122.735 E228.30559
G1 X12.265 Y68.550 E230.68000
G1 X12.265 Y69.435 E230.70742
