; generated by Slic3r 0.9.10b on 2013-07-01 at 16:39:36

; layer_height = 0.25
; perimeters = 3
; top_solid_layers = 3
; bottom_solid_layers = 3
; fill_density = 0.2
; perimeter_speed = 33
; infill_speed = 40
; travel_speed = 100
; nozzle_diameter = 0.35
; filament_diameter = 3
; extrusion_multiplier = 1
; perimeters extrusion width = 0.39mm
; infill extrusion width = 0.39mm
; solid infill extrusion width = 0.39mm
; top infill extrusion width = 0.39mm
; first layer extrusion width = 0.70mm

G21 ; set units to millimeters
; start G-code
;Stop the fan
M106
G4 P1000
;slow down to printing speed
M106 S50
; Red lights only during preheat
M42 S0 P28  ; Turn blue off.
M42 S0 P31  ; Turn main lights off.
M42 S255 P30  ; Turn red on
M42 S0 P29  ; Turn green off.
M104 S150; set hotend to a safe holding temp
M190 S60 ; set bed and wait for 110 degrees.
; setting the bed here allows us to set the lights to red for heating
;home the axis, lights blue during
M42 S255 P28  ; Turn blue on.
M42 S0 P31  ; Turn main lights off.
M42 S0 P30  ; Turn red off.
M42 S0 P29  ; Turn green off.
M104 S210; set hotend to printing temp.
G28 ; home all axes
; Red lights only again during wait for temperature
M42 S0 P28  ; Turn blue off.
M42 S0 P31  ; Turn main lights off.
M42 S255 P30  ; Turn red on
M42 S0 P29  ; Turn green off.
M109 S210; wait for extruder temp
; up to temp so blue and main lights on.
M42 S255 P28  ; Turn blue on.
M42 S255 P31  ; Turn main lights on.
M42 S0 P30  ; Turn red off.
M42 S0 P29  ; Turn green off.
G90 ; use absolute coordinates
G92 E0
M82 ; use absolute distances for extrusion
M106 S63
G1 F1500.000 E-3.00000
G1 Z0.700 F6000.000
G92 E0
G1 X8.690 Y30.900
G1 Z0.450
G1 F1500.000 E3.00000
G1 X9.790 Y30.650 F990.000 E3.03490
G1 X60.290 Y25.650 E4.60508
G1 X60.750 Y25.630 E4.61933
G1 X104.750 Y25.630 E5.98074
G1 X105.870 Y25.760 E6.01563
G1 X106.930 Y26.170 E6.05080
G1 X107.860 Y26.820 E6.08590
G1 X108.590 Y27.680 E6.12081
G1 X109.100 Y28.690 E6.15582
G1 X109.350 Y29.790 E6.19072
G1 X114.350 Y80.290 E7.76090
G1 X114.370 Y80.750 E7.77514
G1 X114.370 Y124.750 E9.13656
G1 X114.240 Y125.870 E9.17145
G1 X113.830 Y126.930 E9.20661
G1 X113.180 Y127.860 E9.24172
G1 X112.320 Y128.590 E9.27662
G1 X111.310 Y129.100 E9.31163
G1 X110.210 Y129.350 E9.34654
G1 X59.710 Y134.350 E10.91671
G1 X59.250 Y134.370 E10.93096
G1 X15.250 Y134.370 E12.29238
G1 X14.130 Y134.240 E12.32726
G1 X13.070 Y133.830 E12.36243
G1 X12.140 Y133.180 E12.39754
G1 X11.410 Y132.320 E12.43244
G1 X10.900 Y131.310 E12.46745
G1 X10.650 Y130.210 E12.50235
G1 X5.650 Y79.710 E14.07253
G1 X5.630 Y79.250 E14.08678
G1 X5.630 Y35.250 E15.44819
G1 X5.760 Y34.130 E15.48308
G1 X6.170 Y33.070 E15.51825
G1 X6.820 Y32.140 E15.55335
G1 X7.680 Y31.410 E15.58826
G1 X8.606 Y30.942 E15.62037
G1 F1500.000 E12.62037
G1 Z0.700 F6000.000
G92 E0
G1 X27.636 Y39.650
G1 Z0.450
G1 F1500.000 E3.00000
G1 X28.026 Y38.884 F495.000 E3.02661
G1 X28.634 Y38.276 E3.05322
G1 X29.401 Y37.886 E3.07984
G1 X30.250 Y37.751 E3.10645
G1 X31.099 Y37.886 E3.13306
G1 X31.866 Y38.276 E3.15967
G1 X32.474 Y38.884 E3.18628
G1 X32.864 Y39.650 E3.21289
G1 X32.999 Y40.500 E3.23951
G1 X32.864 Y41.350 E3.26612
G1 X32.474 Y42.116 E3.29273
G1 X31.866 Y42.724 E3.31935
G1 X31.099 Y43.114 E3.34596
G1 X30.250 Y43.249 E3.37257
G1 X29.401 Y43.114 E3.39918
G1 X28.634 Y42.724 E3.42579
G1 X28.026 Y42.116 E3.45240
G1 X27.636 Y41.350 E3.47901
G1 X27.501 Y40.500 E3.50563
G1 X27.621 Y39.743 E3.52934
G1 X28.237 Y39.846 F6000.000
G1 X28.538 Y39.256 F495.000 E3.54983
G1 X29.006 Y38.788 E3.57031
G1 X29.596 Y38.487 E3.59080
G1 X30.250 Y38.384 E3.61129
G1 X30.904 Y38.487 E3.63178
G1 X31.494 Y38.788 E3.65226
G1 X31.962 Y39.256 E3.67275
G1 X32.263 Y39.846 E3.69324
G1 X32.366 Y40.500 E3.71373
G1 X32.263 Y41.154 E3.73421
G1 X31.962 Y41.744 E3.75470
G1 X31.494 Y42.212 E3.77519
G1 X30.904 Y42.513 E3.79567
G1 X30.250 Y42.616 E3.81616
G1 X29.596 Y42.513 E3.83665
G1 X29.006 Y42.212 E3.85714
G1 X28.538 Y41.744 E3.87762
G1 X28.237 Y41.154 E3.89811
G1 X28.134 Y40.500 E3.91860
G1 X28.223 Y39.939 E3.93619
G1 X28.854 Y39.748 F6000.000
G1 F1500.000 E0.93619
G1 Z0.700 F6000.000
G92 E0
G1 X86.868 Y40.500
G1 Z0.450
G1 F1500.000 E3.00000
G1 X87.034 Y39.455 F495.000 E3.03274
G1 X87.514 Y38.512 E3.06548
G1 X88.262 Y37.764 E3.09821
G1 X89.205 Y37.284 E3.13095
G1 X90.250 Y37.118 E3.16368
G1 X91.295 Y37.284 E3.19642
G1 X92.238 Y37.764 E3.22916
G1 X92.986 Y38.512 E3.26189
G1 X93.466 Y39.455 E3.29463
G1 X93.632 Y40.500 E3.32737
G1 X93.466 Y41.545 E3.36011
G1 X92.986 Y42.488 E3.39284
G1 X92.238 Y43.236 E3.42558
G1 X91.295 Y43.716 E3.45831
G1 X90.250 Y43.882 E3.49105
G1 X89.205 Y43.716 E3.52379
G1 X88.262 Y43.236 E3.55652
G1 X87.514 Y42.488 E3.58925
G1 X87.034 Y41.545 E3.62200
G1 X86.883 Y40.593 E3.65183
G1 X87.501 Y40.500 F6000.000
G1 X87.636 Y39.651 F495.000 E3.67844
G1 X88.026 Y38.884 E3.70506
G1 X88.634 Y38.276 E3.73167
G1 X89.401 Y37.886 E3.75828
G1 X90.250 Y37.751 E3.78489
G1 X91.099 Y37.886 E3.81150
G1 X91.866 Y38.276 E3.83812
G1 X92.474 Y38.884 E3.86473
G1 X92.864 Y39.650 E3.89134
G1 X92.999 Y40.500 E3.91795
G1 X92.864 Y41.350 E3.94457
G1 X92.474 Y42.116 E3.97118
G1 X91.866 Y42.724 E3.99779
G1 X91.099 Y43.114 E4.02440
G1 X90.250 Y43.249 E4.05101
G1 X89.401 Y43.114 E4.07762
G1 X88.634 Y42.724 E4.10424
G1 X88.026 Y42.116 E4.13084
G1 X87.636 Y41.349 E4.15746
G1 X87.516 Y40.593 E4.18117
G1 X88.134 Y40.500 F6000.000
G1 X88.237 Y39.846 F495.000 E4.20166
G1 X88.538 Y39.256 E4.22215
G1 X89.006 Y38.788 E4.24263
G1 X89.596 Y38.487 E4.26312
G1 X90.250 Y38.384 E4.28361
G1 X90.904 Y38.487 E4.30410
G1 X91.494 Y38.788 E4.32458
G1 X91.962 Y39.256 E4.34507
G1 X92.263 Y39.846 E4.36556
G1 X92.366 Y40.500 E4.38604
G1 X92.263 Y41.154 E4.40653
G1 X91.962 Y41.744 E4.42702
G1 X91.494 Y42.212 E4.44751
G1 X90.904 Y42.513 E4.46799
G1 X90.250 Y42.616 E4.48848
G1 X89.596 Y42.513 E4.50897
G1 X89.006 Y42.212 E4.52946
G1 X88.538 Y41.744 E4.54994
G1 X88.237 Y41.154 E4.57043
G1 X88.148 Y40.593 E4.58802
G1 X88.690 Y40.216 F6000.000
G1 F1500.000 E1.58802
G1 Z0.700 F6000.000
G92 E0
G1 X90.250 Y117.251
G1 Z0.450
G1 F1500.000 E3.00000
G1 X91.099 Y117.385 F495.000 E3.02661
G1 X91.866 Y117.776 E3.05322
G1 X92.474 Y118.384 E3.07983
G1 X92.864 Y119.150 E3.10644
G1 X92.999 Y120.000 E3.13306
G1 X92.864 Y120.850 E3.15967
G1 X92.474 Y121.616 E3.18628
G1 X91.866 Y122.224 E3.21289
G1 X91.099 Y122.615 E3.23951
G1 X90.250 Y122.749 E3.26611
G1 X89.400 Y122.614 E3.29273
G1 X88.634 Y122.224 E3.31934
G1 X88.026 Y121.616 E3.34595
G1 X87.635 Y120.849 E3.37257
G1 X87.501 Y120.000 E3.39918
G1 X87.635 Y119.151 E3.42579
G1 X88.026 Y118.384 E3.45240
G1 X88.634 Y117.776 E3.47901
G1 X89.400 Y117.386 E3.50562
G1 X90.157 Y117.266 E3.52934
G1 X90.250 Y117.884 F6000.000
G1 X90.904 Y117.987 F495.000 E3.54982
G1 X91.494 Y118.288 E3.57031
G1 X91.962 Y118.756 E3.59080
G1 X92.263 Y119.346 E3.61129
G1 X92.366 Y120.000 E3.63177
G1 X92.263 Y120.654 E3.65226
G1 X91.962 Y121.244 E3.67275
G1 X91.494 Y121.712 E3.69323
G1 X90.904 Y122.013 E3.71372
G1 X90.250 Y122.116 E3.73421
G1 X89.596 Y122.013 E3.75470
G1 X89.006 Y121.712 E3.77519
G1 X88.538 Y121.244 E3.79567
G1 X88.237 Y120.654 E3.81616
G1 X88.134 Y120.000 E3.83665
G1 X88.237 Y119.346 E3.85713
G1 X88.538 Y118.756 E3.87762
G1 X89.006 Y118.288 E3.89811
G1 X89.596 Y117.987 E3.91859
G1 X90.157 Y117.898 E3.93618
G1 X90.534 Y118.440 F6000.000
G1 F1500.000 E0.93618
G1 Z0.700 F6000.000
G92 E0
G1 X33.632 Y120.000
G1 Z0.450
G1 F1500.000 E3.00000
G1 X33.466 Y121.045 F495.000 E3.03274
G1 X32.986 Y121.988 E3.06547
G1 X32.238 Y122.736 E3.09821
G1 X31.295 Y123.216 E3.13095
G1 X30.250 Y123.382 E3.16368
G1 X29.205 Y123.216 E3.19642
G1 X28.262 Y122.736 E3.22916
G1 X27.514 Y121.988 E3.26189
G1 X27.034 Y121.045 E3.29463
G1 X26.868 Y120.000 E3.32737
G1 X27.034 Y118.955 E3.36010
G1 X27.514 Y118.012 E3.39284
G1 X28.262 Y117.264 E3.42557
G1 X29.205 Y116.784 E3.45831
G1 X30.250 Y116.618 E3.49105
G1 X31.295 Y116.784 E3.52378
G1 X32.238 Y117.264 E3.55652
G1 X32.986 Y118.012 E3.58926
G1 X33.466 Y118.955 E3.62199
G1 X33.617 Y119.907 E3.65183
G1 X32.999 Y120.000 F6000.000
G1 X32.864 Y120.850 F495.000 E3.67845
G1 X32.474 Y121.616 E3.70506
G1 X31.866 Y122.224 E3.73167
G1 X31.099 Y122.615 E3.75828
G1 X30.250 Y122.749 E3.78489
G1 X29.400 Y122.614 E3.81150
G1 X28.634 Y122.224 E3.83812
G1 X28.026 Y121.616 E3.86473
G1 X27.636 Y120.850 E3.89134
G1 X27.501 Y120.000 E3.91795
G1 X27.636 Y119.150 E3.94456
G1 X28.026 Y118.384 E3.97118
G1 X28.634 Y117.776 E3.99779
G1 X29.400 Y117.386 E4.02440
G1 X30.250 Y117.251 E4.05101
G1 X31.099 Y117.385 E4.07762
G1 X31.866 Y117.776 E4.10424
G1 X32.474 Y118.384 E4.13085
G1 X32.864 Y119.150 E4.15746
G1 X32.984 Y119.907 E4.18117
G1 X32.366 Y120.000 F6000.000
G1 X32.263 Y120.654 F495.000 E4.20166
G1 X31.962 Y121.244 E4.22215
G1 X31.494 Y121.712 E4.24263
G1 X30.904 Y122.013 E4.26312
G1 X30.250 Y122.116 E4.28361
G1 X29.596 Y122.013 E4.30409
G1 X29.006 Y121.712 E4.32458
G1 X28.538 Y121.244 E4.34507
G1 X28.237 Y120.654 E4.36556
G1 X28.134 Y120.000 E4.38604
G1 X28.237 Y119.346 E4.40653
G1 X28.538 Y118.756 E4.42702
G1 X29.006 Y118.288 E4.44750
G1 X29.596 Y117.987 E4.46799
G1 X30.250 Y117.884 E4.48848
G1 X30.904 Y117.987 E4.50896
G1 X31.494 Y118.288 E4.52945
G1 X31.962 Y118.756 E4.54994
G1 X32.263 Y119.346 E4.57043
G1 X32.352 Y119.907 E4.58801
G1 X31.810 Y120.284 F6000.000
G1 F1500.000 E1.58801
G1 Z0.700 F6000.000
G92 E0
G1 X16.812 Y128.188
G1 Z0.450
G1 F1500.000 E3.00000
G1 X16.812 Y77.688 F990.000 E4.56254
G1 X11.812 Y77.688 E4.71724
G1 X11.812 Y36.812 E5.98199
G1 X29.568 Y36.812 E6.53138
G1 X29.629 Y37.068 E6.53950
G1 X28.262 Y37.764 E6.58698
G1 X27.514 Y38.512 E6.61971
G1 X27.034 Y39.455 E6.65245
G1 X26.868 Y40.500 E6.68519
G1 X27.034 Y41.545 E6.71792
G1 X27.514 Y42.488 E6.75066
G1 X28.262 Y43.236 E6.78340
G1 X29.205 Y43.716 E6.81613
G1 X30.250 Y43.882 E6.84887
G1 X31.295 Y43.716 E6.88161
G1 X32.238 Y43.236 E6.91434
G1 X32.986 Y42.488 E6.94708
G1 X33.466 Y41.545 E6.97981
G1 X33.632 Y40.500 E7.01255
G1 X33.466 Y39.455 E7.04529
G1 X32.986 Y38.512 E7.07803
G1 X32.238 Y37.764 E7.11077
G1 X30.871 Y37.068 E7.15824
G1 X30.932 Y36.812 E7.16636
G1 X62.312 Y36.812 E8.13731
G1 X62.312 Y31.812 E8.29202
G1 X103.188 Y31.812 E9.55676
G1 X103.188 Y82.312 E11.11930
G1 X108.188 Y82.312 E11.27401
G1 X108.188 Y123.188 E12.53875
G1 X91.786 Y123.188 E13.04625
G1 X92.986 Y121.988 E13.09876
G1 X93.466 Y121.045 E13.13150
G1 X93.632 Y120.000 E13.16424
G1 X93.466 Y118.955 E13.19698
G1 X92.986 Y118.012 E13.22971
G1 X92.238 Y117.264 E13.26244
G1 X91.295 Y116.784 E13.29519
G1 X90.250 Y116.618 E13.32792
G1 X89.205 Y116.784 E13.36066
G1 X88.262 Y117.264 E13.39339
G1 X87.514 Y118.012 E13.42612
G1 X87.034 Y118.955 E13.45887
G1 X86.868 Y120.000 E13.49160
G1 X87.034 Y121.045 E13.52434
G1 X87.514 Y121.988 E13.55708
G1 X88.714 Y123.188 E13.60959
G1 X57.688 Y123.188 E14.56959
G1 X57.688 Y128.188 E14.72430
G1 X16.906 Y128.188 E15.98614
G1 X16.187 Y128.813 F6000.000
G1 X16.187 Y78.313 F990.000 E17.54868
G1 X11.187 Y78.313 E17.70338
G1 X11.187 Y36.187 E19.00680
G1 X61.687 Y36.187 E20.56933
G1 X61.687 Y31.187 E20.72404
G1 X103.813 Y31.187 E22.02745
G1 X103.813 Y81.687 E23.58999
G1 X108.813 Y81.687 E23.74469
G1 X108.813 Y123.813 E25.04811
G1 X58.313 Y123.813 E26.61064
G1 X58.313 Y128.813 E26.76535
G1 X16.281 Y128.813 E28.06586
G1 X15.562 Y129.438 F6000.000
G1 X15.562 Y78.938 F594.000 E29.62840
G1 X10.562 Y78.938 E29.78311
G1 X10.562 Y35.562 E31.12519
G1 X61.062 Y35.562 E32.68773
G1 X61.062 Y30.562 E32.84243
G1 X104.438 Y30.562 E34.18452
G1 X104.438 Y81.062 E35.74705
G1 X109.438 Y81.062 E35.90176
G1 X109.438 Y124.438 E37.24384
G1 X58.938 Y124.438 E38.80638
G1 X58.938 Y129.438 E38.96109
G1 X15.656 Y129.438 E40.30027
G1 X15.875 Y128.896 F6000.000
G1 X17.465 Y127.735
G1 X17.265 Y127.535 F1200.000 E40.30904
G1 X17.265 Y126.650 E40.33646
G1 X18.350 Y127.735 E40.38402
G1 X19.235 Y127.735 E40.41144
G1 X17.265 Y125.765 E40.49778
G1 X17.265 Y124.880 E40.52520
G1 X20.120 Y127.735 E40.65031
G1 X21.005 Y127.735 E40.67774
G1 X17.265 Y123.995 E40.84163
G1 X17.265 Y123.110 E40.86906
G1 X21.890 Y127.735 E41.07173
G1 X22.775 Y127.735 E41.09916
G1 X17.265 Y122.225 E41.34062
G1 X17.265 Y121.340 E41.36804
G1 X23.660 Y127.735 E41.64828
G1 X24.545 Y127.735 E41.67570
G1 X17.265 Y120.455 E41.99472
G1 X17.265 Y119.570 E42.02214
G1 X25.430 Y127.735 E42.37995
G1 X26.315 Y127.735 E42.40737
G1 X17.265 Y118.685 E42.80395
G1 X17.265 Y117.800 E42.83137
G1 X27.200 Y127.735 E43.26674
G1 X28.085 Y127.735 E43.29416
G1 X17.265 Y116.915 E43.76830
G1 X17.265 Y116.030 E43.79572
G1 X28.970 Y127.735 E44.30865
G1 X29.855 Y127.735 E44.33607
G1 X17.265 Y115.145 E44.88778
G1 X17.265 Y114.260 E44.91520
G1 X30.740 Y127.735 E45.50569
G1 X31.625 Y127.735 E45.53311
G1 X17.265 Y113.375 E46.16238
G1 X17.265 Y112.490 E46.18980
G1 X32.510 Y127.735 E46.85785
G1 X33.395 Y127.735 E46.88527
G1 X29.360 Y123.699 E47.06212
G1 X30.367 Y123.822 E47.09356
G1 X34.280 Y127.735 E47.26504
G1 X35.165 Y127.735 E47.29246
G1 X31.131 Y123.701 E47.46924
G1 X31.788 Y123.473 E47.49079
G1 X36.050 Y127.735 E47.67755
G1 X36.935 Y127.735 E47.70497
G1 X32.375 Y123.174 E47.90481
G1 X32.850 Y122.764 E47.92426
G1 X37.820 Y127.735 E48.14207
G1 X38.705 Y127.735 E48.16949
G1 X33.292 Y122.322 E48.40669
G1 X33.612 Y121.757 E48.42681
G1 X39.590 Y127.735 E48.68879
G1 X40.475 Y127.735 E48.71621
G1 X33.906 Y121.165 E49.00409
G1 X34.027 Y120.401 E49.02806
G1 X41.360 Y127.735 E49.34942
G1 X42.245 Y127.735 E49.37684
G1 X34.011 Y119.501 E49.73766
G1 X33.584 Y118.189 E49.78042
G1 X43.130 Y127.735 E50.19874
G1 X44.015 Y127.735 E50.22616
G1 X17.265 Y100.985 E51.39836
G1 X17.265 Y100.100 E51.42578
G1 X44.900 Y127.735 E52.63677
G1 X45.785 Y127.735 E52.66419
G1 X17.265 Y99.215 E53.91395
G1 X17.265 Y98.330 E53.94137
G1 X46.670 Y127.735 E55.22992
G1 X47.555 Y127.735 E55.25734
G1 X17.265 Y97.445 E56.58466
G1 X17.265 Y96.560 E56.61209
G1 X48.440 Y127.735 E57.97819
G1 X49.325 Y127.735 E58.00561
G1 X17.265 Y95.675 E59.41050
G1 X17.265 Y94.790 E59.43792
G1 X50.210 Y127.735 E60.88159
G1 X51.095 Y127.735 E60.90901
G1 X17.265 Y93.905 E62.39146
G1 X17.265 Y93.020 E62.41888
G1 X51.980 Y127.735 E63.94011
G1 X52.865 Y127.735 E63.96753
G1 X17.265 Y92.135 E65.52754
G1 X17.265 Y91.250 E65.55497
G1 X53.750 Y127.735 E67.15376
G1 X54.635 Y127.735 E67.18118
G1 X17.265 Y90.365 E68.81875
G1 X17.265 Y89.480 E68.84617
G1 X55.520 Y127.735 E70.52253
G1 X56.405 Y127.735 E70.54995
G1 X17.265 Y88.595 E72.26508
G1 X17.265 Y87.710 E72.29251
G1 X57.235 Y127.680 E74.04400
G1 X57.235 Y126.795 E74.07142
G1 X17.265 Y86.825 E75.82291
G1 X17.265 Y85.940 E75.85033
G1 X57.235 Y125.910 E77.60182
G1 X57.235 Y125.025 E77.62924
G1 X17.265 Y85.055 E79.38073
G1 X17.265 Y84.170 E79.40816
G1 X57.235 Y124.140 E81.15965
G1 X57.235 Y123.255 E81.18707
G1 X17.265 Y83.285 E82.93856
G1 X17.265 Y82.400 E82.96598
G1 X57.600 Y122.735 E84.73348
G1 X58.485 Y122.735 E84.76090
G1 X17.265 Y81.515 E86.56718
G1 X17.265 Y80.630 E86.59460
G1 X59.370 Y122.735 E88.43966
G1 X60.255 Y122.735 E88.46709
G1 X17.265 Y79.745 E90.35093
G1 X17.265 Y78.860 E90.37835
G1 X61.140 Y122.735 E92.30097
G1 X62.025 Y122.735 E92.32839
G1 X17.265 Y77.975 E94.28980
G1 X16.525 Y77.235 F6000.000
G1 X12.265 Y72.975 F1200.000 E94.47647
G1 X12.265 Y72.090 E94.50389
G1 X62.910 Y122.735 E96.72318
G1 X63.795 Y122.735 E96.75060
G1 X12.265 Y71.205 E99.00867
G1 X12.265 Y70.320 E99.03609
G1 X64.680 Y122.735 E101.33294
G1 X65.565 Y122.735 E101.36036
G1 X12.265 Y69.435 E103.69599
G1 X12.265 Y68.550 E103.72341
G1 X66.450 Y122.735 E106.09782
G1 X67.335 Y122.735 E106.12524
G1 X12.265 Y67.665 E108.53843
G1 X12.265 Y66.780 E108.56585
G1 X68.220 Y122.735 E111.01782
G1 X69.105 Y122.735 E111.04525
G1 X12.265 Y65.895 E113.53600
G1 X12.265 Y65.010 E113.56342
G1 X69.990 Y122.735 E116.09295
G1 X70.875 Y122.735 E116.12038
G1 X12.265 Y64.125 E118.68869
G1 X12.265 Y63.240 E118.71611
G1 X71.760 Y122.735 E121.32321
G1 X72.645 Y122.735 E121.35063
G1 X12.265 Y62.355 E123.99651
G1 X12.265 Y61.470 E124.02393
G1 X73.530 Y122.735 E126.70858
G1 X74.415 Y122.735 E126.73601
G1 X12.265 Y60.585 E129.45944
G1 X12.265 Y59.700 E129.48687
