; generated by Slic3r 0.9.10b on 2013-07-01 at 07:26:52

; layer_height = 0.25
; perimeters = 3
; top_solid_layers = 3
; bottom_solid_layers = 3
; fill_density = 0.2
; perimeter_speed = 33
; infill_speed = 40
; travel_speed = 100
; nozzle_diameter = 0.35
; filament_diameter = 3
; extrusion_multiplier = 1
; perimeters extrusion width = 0.39mm
; infill extrusion width = 0.39mm
; solid infill extrusion width = 0.39mm
; top infill extrusion width = 0.39mm
; first layer extrusion width = 0.70mm

G21 ; set units to millimeters
; start G-code
;Stop the fan
M106
G4 P1000
;slow down to printing speed
M106 S50
; Red lights only during preheat
M42 S0 P28  ; Turn blue off.
M42 S0 P31  ; Turn main lights off.
M42 S255 P30  ; Turn red on
M42 S0 P29  ; Turn green off.
M104 S150; set hotend to a safe holding temp
M190 S60 ; set bed and wait for 110 degrees.
; setting the bed here allows us to set the lights to red for heating
;home the axis, lights blue during
M42 S255 P28  ; Turn blue on.
M42 S0 P31  ; Turn main lights off.
M42 S0 P30  ; Turn red off.
M42 S0 P29  ; Turn green off.
M104 S210; set hotend to printing temp.
G28 ; home all axes
; Red lights only again during wait for temperature
M42 S0 P28  ; Turn blue off.
M42 S0 P31  ; Turn main lights off.
M42 S255 P30  ; Turn red on
M42 S0 P29  ; Turn green off.
M109 S210; wait for extruder temp
; up to temp so blue and main lights on.
M42 S255 P28  ; Turn blue on.
M42 S255 P31  ; Turn main lights on.
M42 S0 P30  ; Turn red off.
M42 S0 P29  ; Turn green off.
G90 ; use absolute coordinates
G92 E0
M82 ; use absolute distances for extrusion
M106 S63
G1 F1500.000 E-3.00000
G1 Z0.700 F6000.000
G92 E0
G1 X13.190 Y31.490
G1 Z0.450
G1 F1500.000 E3.00000
G1 X14.300 Y31.030 F990.000 E3.03718
G1 X15.500 Y30.880 E3.07460
G1 X104.500 Y30.880 E5.82837
G1 X105.700 Y31.030 E5.86579
G1 X106.810 Y31.490 E5.90297
G1 X107.770 Y32.230 E5.94047
G1 X108.510 Y33.190 E5.97798
G1 X108.970 Y34.300 E6.01515
G1 X109.120 Y35.500 E6.05257
G1 X109.120 Y124.500 E8.80635
G1 X108.970 Y125.700 E8.84377
G1 X108.510 Y126.810 E8.88095
G1 X107.770 Y127.770 E8.91845
G1 X106.810 Y128.510 E8.95595
G1 X105.700 Y128.970 E8.99313
G1 X104.500 Y129.120 E9.03055
G1 X15.500 Y129.120 E11.78433
G1 X14.300 Y128.970 E11.82175
G1 X13.190 Y128.510 E11.85892
G1 X12.230 Y127.770 E11.89643
G1 X11.490 Y126.810 E11.93393
G1 X11.030 Y125.700 E11.97111
G1 X10.880 Y124.500 E12.00853
G1 X10.880 Y35.500 E14.76230
G1 X11.030 Y34.300 E14.79972
G1 X11.490 Y33.190 E14.83690
G1 X12.230 Y32.230 E14.87440
G1 X13.116 Y31.547 E14.90901
G1 F1500.000 E11.90901
G1 Z0.700 F6000.000
G92 E0
G1 X78.619 Y117.850
G1 Z0.450
G1 F1500.000 E3.00000
G1 X79.275 Y117.516 F495.000 E3.02277
G1 X80.000 Y117.401 E3.04550
G1 X80.725 Y117.516 E3.06819
G1 X81.381 Y117.850 E3.09096
G1 X81.900 Y118.369 E3.11369
G1 X82.234 Y119.025 E3.13645
G1 X82.349 Y119.751 E3.15920
G1 X82.234 Y120.479 E3.18201
G1 X81.900 Y121.131 E3.20467
G1 X81.382 Y121.649 E3.22735
G1 X80.726 Y121.984 E3.25014
G1 X80.000 Y122.099 E3.27288
G1 X79.274 Y121.984 E3.29562
G1 X78.618 Y121.649 E3.31841
G1 X78.100 Y121.131 E3.34110
G1 X77.766 Y120.479 E3.36375
G1 X77.651 Y119.751 E3.38656
G1 X77.766 Y119.025 E3.40931
G1 X78.100 Y118.369 E3.43207
G1 X78.553 Y117.916 E3.45190
G1 X78.991 Y118.361 F6000.000
G1 X79.470 Y118.118 F495.000 E3.46853
G1 X80.000 Y118.034 E3.48514
G1 X80.530 Y118.118 E3.50173
G1 X80.581 Y118.144 E3.50352
G1 X81.009 Y118.361 E3.51836
G1 X81.388 Y118.741 E3.53497
G1 X81.632 Y119.220 E3.55160
G1 X81.716 Y119.750 E3.56821
G1 X81.632 Y120.281 E3.58486
G1 X81.389 Y120.759 E3.60144
G1 X81.009 Y121.138 E3.61804
G1 X80.530 Y121.382 E3.63467
G1 X80.000 Y121.466 E3.65128
G1 X79.470 Y121.382 E3.66790
G1 X78.991 Y121.138 E3.68453
G1 X78.611 Y120.759 E3.70113
G1 X78.368 Y120.281 E3.71771
G1 X78.284 Y119.750 E3.73435
G1 X78.368 Y119.220 E3.75097
G1 X78.612 Y118.741 E3.76760
G1 X78.925 Y118.428 E3.78130
G1 X79.470 Y118.606 F6000.000
G1 F1500.000 E0.78130
G1 Z0.700 F6000.000
G92 E0
G1 X97.850 Y101.381
G1 Z0.450
G1 F1500.000 E3.00000
G1 X97.516 Y100.725 F495.000 E3.02277
G1 X97.401 Y100.000 E3.04549
G1 X97.516 Y99.274 E3.06822
G1 X97.851 Y98.618 E3.09100
G1 X98.369 Y98.100 E3.11369
G1 X99.021 Y97.766 E3.13635
G1 X99.750 Y97.652 E3.15919
G1 X99.903 Y97.675 E3.16396
G1 X100.479 Y97.766 E3.18201
G1 X101.131 Y98.100 E3.20466
G1 X101.649 Y98.618 E3.22735
G1 X101.984 Y99.274 E3.25014
G1 X102.099 Y100.000 E3.27286
G1 X102.075 Y100.154 E3.27771
G1 X101.984 Y100.725 E3.29558
G1 X101.650 Y101.381 E3.31836
G1 X101.131 Y101.900 E3.34108
G1 X100.475 Y102.234 E3.36385
G1 X99.750 Y102.349 E3.38657
G1 X99.025 Y102.234 E3.40930
G1 X98.369 Y101.900 E3.43206
G1 X97.916 Y101.447 E3.45189
G1 X98.361 Y101.009 F6000.000
G1 X98.118 Y100.530 F495.000 E3.46852
G1 X98.034 Y100.000 E3.48513
G1 X98.118 Y99.470 E3.50174
G1 X98.362 Y98.991 E3.51837
G1 X98.741 Y98.611 E3.53497
G1 X99.219 Y98.368 E3.55155
G1 X99.750 Y98.284 E3.56820
G1 X99.806 Y98.293 E3.56996
G1 X100.281 Y98.368 E3.58484
G1 X100.759 Y98.611 E3.60143
G1 X101.138 Y98.991 E3.61803
G1 X101.382 Y99.470 E3.63466
G1 X101.466 Y100.000 E3.65127
G1 X101.457 Y100.057 E3.65305
G1 X101.382 Y100.530 E3.66787
G1 X101.139 Y101.009 E3.68450
G1 X100.759 Y101.388 E3.70111
G1 X100.280 Y101.632 E3.71774
G1 X99.750 Y101.716 E3.73435
G1 X99.220 Y101.632 E3.75096
G1 X98.741 Y101.388 E3.76758
G1 X98.428 Y101.075 E3.78129
G1 X98.606 Y100.530 F6000.000
G1 F1500.000 E0.78129
G1 Z0.700 F6000.000
G92 E0
G1 X99.750 Y62.849
G1 Z0.450
G1 F1500.000 E3.00000
G1 X99.022 Y62.733 F495.000 E3.02280
G1 X98.369 Y62.400 E3.04549
G1 X97.850 Y61.881 E3.06821
G1 X97.516 Y61.226 E3.09095
G1 X97.401 Y60.500 E3.11371
G1 X97.516 Y59.774 E3.13643
G1 X97.850 Y59.119 E3.15918
G1 X98.369 Y58.600 E3.18191
G1 X99.021 Y58.266 E3.20457
G1 X99.750 Y58.152 E3.22741
G1 X100.479 Y58.266 E3.25022
G1 X101.131 Y58.600 E3.27288
G1 X101.650 Y59.119 E3.29561
G1 X101.984 Y59.774 E3.31836
G1 X102.099 Y60.500 E3.34108
G1 X101.984 Y61.226 E3.36384
G1 X101.650 Y61.881 E3.38658
G1 X101.131 Y62.400 E3.40930
G1 X100.478 Y62.733 E3.43199
G1 X99.843 Y62.834 E3.45189
G1 X99.750 Y62.216 F6000.000
G1 X99.219 Y62.132 F495.000 E3.46853
G1 X98.741 Y61.888 E3.48512
G1 X98.361 Y61.509 E3.50173
G1 X98.118 Y61.030 E3.51835
G1 X98.034 Y60.500 E3.53497
G1 X98.118 Y59.970 E3.55158
G1 X98.362 Y59.491 E3.56820
G1 X98.741 Y59.111 E3.58481
G1 X99.219 Y58.868 E3.60139
G1 X99.750 Y58.784 E3.61805
G1 X100.281 Y58.868 E3.63469
G1 X100.759 Y59.111 E3.65127
G1 X101.138 Y59.491 E3.66789
G1 X101.382 Y59.970 E3.68450
G1 X101.466 Y60.500 E3.70111
G1 X101.382 Y61.030 E3.71773
G1 X101.139 Y61.509 E3.73435
G1 X100.759 Y61.888 E3.75096
G1 X100.281 Y62.132 E3.76756
G1 X99.843 Y62.202 E3.78129
G1 X99.506 Y61.737 F6000.000
G1 F1500.000 E0.78129
G1 Z0.700 F6000.000
G92 E0
G1 X81.381 Y42.150
G1 Z0.450
G1 F1500.000 E3.00000
G1 X80.726 Y42.484 F495.000 E3.02273
G1 X80.000 Y42.599 E3.04549
G1 X79.274 Y42.484 E3.06824
G1 X78.758 Y42.221 E3.08613
G1 X78.619 Y42.150 E3.09098
G1 X78.100 Y41.631 E3.11371
G1 X77.766 Y40.973 E3.13652
G1 X77.651 Y40.250 E3.15919
G1 X77.742 Y39.676 E3.17716
G1 X77.767 Y39.522 E3.18200
G1 X78.101 Y38.868 E3.20471
G1 X78.619 Y38.350 E3.22740
G1 X79.272 Y38.016 E3.25009
G1 X80.000 Y37.902 E3.27289
G1 X80.153 Y37.925 E3.27767
G1 X80.727 Y38.016 E3.29566
G1 X81.381 Y38.350 E3.31835
G1 X81.899 Y38.868 E3.34105
G1 X82.233 Y39.522 E3.36375
G1 X82.349 Y40.250 E3.38656
G1 X82.234 Y40.973 E3.40923
G1 X81.900 Y41.631 E3.43205
G1 X81.447 Y42.084 E3.45187
G1 X81.009 Y41.638 F6000.000
G1 X80.531 Y41.882 F495.000 E3.46849
G1 X80.000 Y41.966 E3.48511
G1 X79.469 Y41.882 E3.50173
G1 X79.042 Y41.665 E3.51656
G1 X78.991 Y41.638 E3.51834
G1 X78.611 Y41.259 E3.53495
G1 X78.367 Y40.779 E3.55159
G1 X78.284 Y40.250 E3.56818
G1 X78.359 Y39.776 E3.58304
G1 X78.368 Y39.719 E3.58482
G1 X78.612 Y39.241 E3.60143
G1 X78.991 Y38.861 E3.61802
G1 X79.469 Y38.618 E3.63462
G1 X80.000 Y38.534 E3.65126
G1 X80.056 Y38.543 E3.65302
G1 X80.531 Y38.618 E3.66789
G1 X81.009 Y38.861 E3.68448
G1 X81.388 Y39.241 E3.70108
G1 X81.632 Y39.719 E3.71768
G1 X81.716 Y40.250 E3.73432
G1 X81.632 Y40.779 E3.75091
G1 X81.389 Y41.259 E3.76756
G1 X81.075 Y41.572 E3.78127
G1 X80.531 Y41.395 F6000.000
G1 F1500.000 E0.78127
G1 Z0.700 F6000.000
G92 E0
G1 X42.849 Y40.250
G1 Z0.450
G1 F1500.000 E3.00000
G1 X42.734 Y40.975 F495.000 E3.02272
G1 X42.400 Y41.631 E3.04549
G1 X41.879 Y42.152 E3.06830
G1 X41.226 Y42.484 E3.09096
G1 X40.500 Y42.599 E3.11371
G1 X39.774 Y42.484 E3.13647
G1 X39.121 Y42.152 E3.15912
G1 X38.600 Y41.631 E3.18193
G1 X38.266 Y40.975 E3.20470
G1 X38.151 Y40.250 E3.22742
G1 X38.267 Y39.522 E3.25021
G1 X38.601 Y38.868 E3.27293
G1 X39.119 Y38.350 E3.29563
G1 X39.773 Y38.016 E3.31832
G1 X40.500 Y37.902 E3.34112
G1 X41.227 Y38.016 E3.36389
G1 X41.881 Y38.350 E3.38658
G1 X42.399 Y38.868 E3.40927
G1 X42.733 Y39.522 E3.43200
G1 X42.834 Y40.157 E3.45189
G1 X42.216 Y40.250 F6000.000
G1 X42.132 Y40.780 F495.000 E3.46849
G1 X41.889 Y41.259 E3.48512
G1 X41.508 Y41.639 E3.50176
G1 X41.031 Y41.882 E3.51835
G1 X40.500 Y41.966 E3.53497
G1 X39.969 Y41.882 E3.55159
G1 X39.492 Y41.639 E3.56817
G1 X39.111 Y41.259 E3.58481
G1 X38.868 Y40.780 E3.60144
G1 X38.784 Y40.250 E3.61805
G1 X38.868 Y39.719 E3.63468
G1 X39.112 Y39.241 E3.65129
G1 X39.491 Y38.861 E3.66789
G1 X39.969 Y38.618 E3.68448
G1 X40.500 Y38.534 E3.70112
G1 X41.031 Y38.618 E3.71775
G1 X41.509 Y38.861 E3.73435
G1 X41.888 Y39.241 E3.75094
G1 X42.132 Y39.719 E3.76755
G1 X42.202 Y40.157 E3.78129
G1 X41.738 Y40.494 F6000.000
G1 F1500.000 E0.78129
G1 Z0.700 F6000.000
G92 E0
G1 X24.063 Y44.063
G1 Z0.450
G1 F1500.000 E3.00000
G1 X95.937 Y44.063 F990.000 E5.22390
G1 X95.937 Y115.937 E7.44779
G1 X24.063 Y115.937 E9.67169
G1 X24.063 Y44.156 E11.89269
G1 X24.688 Y44.688 F6000.000
G1 X95.312 Y44.688 F594.000 E14.07791
G1 X95.312 Y115.312 E16.26314
G1 X24.688 Y115.312 E18.44837
G1 X24.688 Y44.781 E20.63070
G1 X25.229 Y45.000 F6000.000
G1 F1500.000 E17.63070
G1 Z0.700 F6000.000
G92 E0
G1 X20.975 Y58.266
G1 Z0.450
G1 F1500.000 E3.00000
G1 X21.631 Y58.600 F495.000 E3.02277
G1 X22.152 Y59.121 E3.04559
G1 X22.484 Y59.774 E3.06824
G1 X22.599 Y60.498 E3.09094
G1 X22.484 Y61.227 E3.11378
G1 X22.149 Y61.883 E3.13654
G1 X21.631 Y62.400 E3.15921
G1 X20.975 Y62.735 E3.18199
G1 X20.250 Y62.849 E3.20470
G1 X19.522 Y62.733 E3.22750
G1 X18.868 Y62.399 E3.25022
G1 X18.350 Y61.881 E3.27291
G1 X18.016 Y61.227 E3.29560
G1 X17.901 Y60.498 E3.31844
G1 X18.015 Y59.776 E3.34106
G1 X18.350 Y59.119 E3.36388
G1 X18.867 Y58.601 E3.38655
G1 X19.524 Y58.266 E3.40935
G1 X20.250 Y58.151 E3.43211
G1 X20.882 Y58.251 E3.45190
G1 X20.780 Y58.868 F6000.000
G1 X21.259 Y59.111 F495.000 E3.46853
G1 X21.639 Y59.492 E3.48517
G1 X21.882 Y59.969 E3.50175
G1 X21.966 Y60.499 E3.51836
G1 X21.882 Y61.031 E3.53501
G1 X21.638 Y61.510 E3.55163
G1 X21.259 Y61.888 E3.56822
G1 X20.780 Y62.133 E3.58485
G1 X20.250 Y62.216 E3.60145
G1 X19.719 Y62.132 E3.61809
G1 X19.241 Y61.888 E3.63470
G1 X18.861 Y61.509 E3.65130
G1 X18.618 Y61.031 E3.66789
G1 X18.534 Y60.499 E3.68454
G1 X18.617 Y59.970 E3.70111
G1 X18.862 Y59.491 E3.71776
G1 X19.240 Y59.112 E3.73435
G1 X19.720 Y58.868 E3.75099
G1 X20.250 Y58.784 E3.76761
G1 X20.687 Y58.853 E3.78131
G1 X20.864 Y59.398 F6000.000
G1 F1500.000 E0.78131
G1 Z0.700 F6000.000
G92 E0
G1 X20.250 Y97.651
G1 Z0.450
G1 F1500.000 E3.00000
G1 X20.973 Y97.766 F495.000 E3.02266
G1 X21.631 Y98.100 E3.04548
G1 X22.150 Y98.619 E3.06820
G1 X22.221 Y98.758 E3.07305
G1 X22.484 Y99.274 E3.09094
G1 X22.599 Y99.998 E3.11365
G1 X22.484 Y100.727 E3.13648
G1 X22.149 Y101.383 E3.15924
G1 X21.631 Y101.900 E3.18191
G1 X20.977 Y102.233 E3.20461
G1 X20.250 Y102.349 E3.22739
G1 X19.522 Y102.233 E3.25021
G1 X18.868 Y101.899 E3.27292
G1 X18.350 Y101.381 E3.29561
G1 X18.016 Y100.727 E3.31830
G1 X17.901 Y99.998 E3.34113
G1 X18.015 Y99.276 E3.36375
G1 X18.349 Y98.620 E3.38654
G1 X18.867 Y98.101 E3.40925
G1 X19.524 Y97.766 E3.43204
G1 X20.157 Y97.666 E3.45189
G1 X20.250 Y98.284 F6000.000
G1 X20.779 Y98.367 F495.000 E3.46848
G1 X21.259 Y98.611 E3.48512
G1 X21.638 Y98.991 E3.50173
G1 X21.665 Y99.042 E3.50352
G1 X21.882 Y99.469 E3.51835
G1 X21.966 Y99.999 E3.53495
G1 X21.882 Y100.531 E3.55160
G1 X21.638 Y101.010 E3.56822
G1 X21.259 Y101.388 E3.58481
G1 X20.781 Y101.632 E3.60141
G1 X20.250 Y101.716 E3.61804
G1 X19.719 Y101.632 E3.63469
G1 X19.241 Y101.388 E3.65129
G1 X18.861 Y101.009 E3.66789
G1 X18.618 Y100.531 E3.68449
G1 X18.534 Y99.999 E3.70114
G1 X18.617 Y99.470 E3.71770
G1 X18.861 Y98.991 E3.73434
G1 X19.240 Y98.612 E3.75094
G1 X19.720 Y98.368 E3.76758
G1 X20.157 Y98.298 E3.78130
G1 X20.493 Y98.761 F6000.000
G1 F1500.000 E0.78130
G1 Z0.700 F6000.000
G92 E0
G1 X39.119 Y117.850
G1 Z0.450
G1 F1500.000 E3.00000
G1 X39.774 Y117.516 F495.000 E3.02273
G1 X40.500 Y117.401 E3.04550
G1 X41.226 Y117.516 E3.06823
G1 X41.881 Y117.850 E3.09096
G1 X42.400 Y118.369 E3.11369
G1 X42.733 Y119.022 E3.13638
G1 X42.849 Y119.751 E3.15920
G1 X42.734 Y120.479 E3.18201
G1 X42.400 Y121.131 E3.20467
G1 X41.881 Y121.650 E3.22740
G1 X41.226 Y121.984 E3.25014
G1 X40.500 Y122.099 E3.27288
G1 X39.774 Y121.984 E3.29562
G1 X39.119 Y121.650 E3.31837
G1 X38.600 Y121.131 E3.34110
G1 X38.266 Y120.479 E3.36375
G1 X38.151 Y119.751 E3.38657
G1 X38.267 Y119.022 E3.40939
G1 X38.600 Y118.369 E3.43207
G1 X39.053 Y117.916 E3.45190
G1 X39.491 Y118.361 F6000.000
G1 X39.970 Y118.118 F495.000 E3.46851
G1 X40.500 Y118.034 E3.48514
G1 X41.030 Y118.118 E3.50175
G1 X41.509 Y118.361 E3.51836
G1 X41.888 Y118.741 E3.53497
G1 X42.132 Y119.219 E3.55157
G1 X42.216 Y119.750 E3.56821
G1 X42.132 Y120.281 E3.58486
G1 X41.889 Y120.759 E3.60144
G1 X41.509 Y121.138 E3.61805
G1 X41.030 Y121.382 E3.63467
G1 X40.500 Y121.466 E3.65128
G1 X39.970 Y121.382 E3.66790
G1 X39.491 Y121.138 E3.68452
G1 X39.111 Y120.759 E3.70113
G1 X38.868 Y120.281 E3.71771
G1 X38.784 Y119.750 E3.73436
G1 X38.868 Y119.219 E3.75100
G1 X39.112 Y118.741 E3.76760
G1 X39.425 Y118.428 E3.78131
G1 X39.970 Y118.605 F6000.000
G1 X38.747 Y117.338
G1 X38.088 Y117.997 F990.000 E3.81015
G1 X37.666 Y118.826 E3.83893
G1 X37.518 Y119.751 E3.86792
G1 X37.665 Y120.676 E3.89691
G1 X38.088 Y121.503 E3.92563
G1 X38.747 Y122.162 E3.95449
G1 X39.768 Y122.682 E3.98994
G1 X39.707 Y122.938 E3.99807
G1 X17.062 Y122.938 E4.69873
G1 X17.062 Y100.793 E5.38392
G1 X17.318 Y100.732 E5.39204
G1 X17.838 Y101.753 E5.42749
G1 X18.496 Y102.410 E5.45628
G1 X19.325 Y102.834 E5.48509
G1 X20.250 Y102.982 E5.51408
G1 X21.174 Y102.835 E5.54302
G1 X22.003 Y102.412 E5.57181
G1 X22.661 Y101.756 E5.60056
G1 X23.182 Y100.732 E5.63612
G1 X23.438 Y100.793 E5.64425
G1 X23.438 Y116.562 E6.13217
G1 X39.707 Y116.562 E6.63556
G1 X39.768 Y116.818 E6.64369
G1 X38.831 Y117.295 E6.67624
G1 F1500.000 E3.67624
G1 Z0.700 F6000.000
G92 E0
G1 X23.438 Y99.207
G1 Z0.450
G1 F1500.000 E3.00000
G1 X23.182 Y99.268 F990.000 E3.00813
G1 X22.662 Y98.247 E3.04360
G1 X22.003 Y97.588 E3.07244
G1 X21.167 Y97.164 E3.10142
G1 X20.250 Y97.018 E3.13016
G1 X19.328 Y97.164 E3.15905
G1 X18.494 Y97.589 E3.18800
G1 X17.837 Y98.249 E3.21682
G1 X17.318 Y99.268 E3.25222
G1 X17.062 Y99.207 E3.26034
G1 X17.062 Y61.293 E4.43345
G1 X17.318 Y61.232 E4.44158
G1 X17.838 Y62.253 E4.47703
G1 X18.496 Y62.910 E4.50582
G1 X19.326 Y63.334 E4.53465
G1 X20.250 Y63.482 E4.56362
G1 X21.170 Y63.337 E4.59243
G1 X22.003 Y62.912 E4.62136
G1 X22.661 Y62.256 E4.65011
G1 X23.182 Y61.232 E4.68567
G1 X23.438 Y61.293 E4.69380
G1 X23.438 Y99.113 E5.86400
G1 X23.182 Y59.768 F6000.000
G1 X22.665 Y58.750 F990.000 E5.89934
G1 X22.003 Y58.088 E5.92832
G1 X21.170 Y57.664 E5.95724
G1 X20.251 Y57.519 E5.98603
G1 X19.328 Y57.664 E6.01493
G1 X18.494 Y58.089 E6.04389
G1 X17.838 Y58.747 E6.07264
G1 X17.318 Y59.768 E6.10810
G1 X17.062 Y59.707 E6.11623
G1 X17.062 Y37.062 E6.81689
G1 X39.707 Y37.062 E7.51755
G1 X39.768 Y37.318 E7.52567
G1 X38.747 Y37.838 E7.56112
G1 X38.090 Y38.496 E7.58991
G1 X37.666 Y39.326 E7.61874
G1 X37.518 Y40.249 E7.64769
G1 X37.664 Y41.170 E7.67652
G1 X38.088 Y42.003 E7.70544
G1 X38.750 Y42.665 E7.73442
G1 X39.768 Y43.182 E7.76976
G1 X39.707 Y43.438 E7.77788
G1 X23.438 Y43.438 E8.28127
G1 X23.438 Y59.707 E8.78467
