; generated by Slic3r 0.9.10b on 2013-06-28 at 21:23:21

; layer_height = 0.25
; perimeters = 3
; top_solid_layers = 3
; bottom_solid_layers = 3
; fill_density = 0.2
; perimeter_speed = 33
; infill_speed = 40
; travel_speed = 100
; nozzle_diameter = 0.35
; filament_diameter = 3
; extrusion_multiplier = 1
; perimeters extrusion width = 0.39mm
; infill extrusion width = 0.39mm
; solid infill extrusion width = 0.39mm
; top infill extrusion width = 0.39mm
; first layer extrusion width = 0.70mm

G21 ; set units to millimeters
; start G-code
;Stop the fan
M106
G4 P1000
;slow down to printing speed
M106 S50
; Red lights only during preheat
M42 S0 P28  ; Turn blue off.
M42 S0 P31  ; Turn main lights off.
M42 S255 P30  ; Turn red on
M42 S0 P29  ; Turn green off.
M104 S150; set hotend to a safe holding temp
M190 S60 ; set bed and wait for 110 degrees.
; setting the bed here allows us to set the lights to red for heating
;home the axis, lights blue during
M42 S255 P28  ; Turn blue on.
M42 S0 P31  ; Turn main lights off.
M42 S0 P30  ; Turn red off.
M42 S0 P29  ; Turn green off.
M104 S210; set hotend to printing temp.
G28 ; home all axes
; Red lights only again during wait for temperature
M42 S0 P28  ; Turn blue off.
M42 S0 P31  ; Turn main lights off.
M42 S255 P30  ; Turn red on
M42 S0 P29  ; Turn green off.
M109 S210; wait for extruder temp
; up to temp so blue and main lights on.
M42 S255 P28  ; Turn blue on.
M42 S255 P31  ; Turn main lights on.
M42 S0 P30  ; Turn red off.
M42 S0 P29  ; Turn green off.
G90 ; use absolute coordinates
G92 E0
M82 ; use absolute distances for extrusion
M106 S63
G1 F1500.000 E-3.00000
G1 Z0.700 F6000.000
G92 E0
G1 X9.050 Y25.780
G1 Z0.450
G1 F1500.000 E3.00000
G1 X10.250 Y25.630 F990.000 E3.03742
G1 X109.750 Y25.630 E6.11608
G1 X110.950 Y25.780 E6.15350
G1 X112.060 Y26.240 E6.19068
G1 X113.020 Y26.980 E6.22818
G1 X113.760 Y27.940 E6.26568
G1 X114.220 Y29.050 E6.30286
G1 X114.370 Y30.250 E6.34028
G1 X114.370 Y129.750 E9.41894
G1 X114.220 Y130.950 E9.45636
G1 X113.760 Y132.060 E9.49354
G1 X113.020 Y133.020 E9.53104
G1 X112.060 Y133.760 E9.56854
G1 X110.950 Y134.220 E9.60572
G1 X109.750 Y134.370 E9.64314
G1 X10.250 Y134.370 E12.72180
G1 X9.050 Y134.220 E12.75922
G1 X7.940 Y133.760 E12.79640
G1 X6.980 Y133.020 E12.83390
G1 X6.240 Y132.060 E12.87141
G1 X5.780 Y130.950 E12.90858
G1 X5.630 Y129.750 E12.94600
G1 X5.630 Y30.250 E16.02466
G1 X5.780 Y29.050 E16.06208
G1 X6.240 Y27.940 E16.09926
G1 X6.980 Y26.980 E16.13676
G1 X7.940 Y26.240 E16.17427
G1 X8.963 Y25.816 E16.20854
G1 F1500.000 E13.20854
G1 Z0.700 F6000.000
G92 E0
G1 X28.026 Y38.884
G1 Z0.450
G1 F1500.000 E3.00000
G1 X28.634 Y38.276 F495.000 E3.02661
G1 X29.401 Y37.886 E3.05322
G1 X30.250 Y37.751 E3.07983
G1 X31.099 Y37.886 E3.10645
G1 X31.866 Y38.276 E3.13306
G1 X32.474 Y38.884 E3.15967
G1 X32.864 Y39.650 E3.18628
G1 X32.999 Y40.500 E3.21289
G1 X32.864 Y41.350 E3.23951
G1 X32.474 Y42.116 E3.26612
G1 X31.866 Y42.724 E3.29273
G1 X31.099 Y43.114 E3.31934
G1 X30.250 Y43.249 E3.34595
G1 X29.401 Y43.114 E3.37256
G1 X28.634 Y42.724 E3.39918
G1 X28.026 Y42.116 E3.42579
G1 X27.636 Y41.350 E3.45240
G1 X27.501 Y40.500 E3.47901
G1 X27.636 Y39.650 E3.50563
G1 X27.984 Y38.968 E3.52934
G1 X28.538 Y39.256 F6000.000
G1 X29.006 Y38.788 F495.000 E3.54983
G1 X29.596 Y38.487 E3.57031
G1 X30.250 Y38.384 E3.59080
G1 X30.904 Y38.487 E3.61129
G1 X31.494 Y38.788 E3.63177
G1 X31.962 Y39.256 E3.65226
G1 X32.263 Y39.846 E3.67275
G1 X32.366 Y40.500 E3.69324
G1 X32.263 Y41.154 E3.71372
G1 X31.962 Y41.744 E3.73421
G1 X31.494 Y42.212 E3.75470
G1 X30.904 Y42.513 E3.77519
G1 X30.250 Y42.616 E3.79567
G1 X29.596 Y42.513 E3.81616
G1 X29.006 Y42.212 E3.83665
G1 X28.538 Y41.744 E3.85713
G1 X28.237 Y41.154 E3.87762
G1 X28.134 Y40.500 E3.89811
G1 X28.237 Y39.846 E3.91860
G1 X28.495 Y39.340 E3.93619
G1 X29.155 Y39.354 F6000.000
G1 F1500.000 E0.93619
G1 Z0.700 F6000.000
G92 E0
G1 X86.868 Y40.500
G1 Z0.450
G1 F1500.000 E3.00000
G1 X87.034 Y39.455 F495.000 E3.03274
G1 X87.514 Y38.512 E3.06548
G1 X88.262 Y37.764 E3.09821
G1 X89.205 Y37.284 E3.13095
G1 X90.250 Y37.118 E3.16368
G1 X91.295 Y37.284 E3.19642
G1 X92.238 Y37.764 E3.22916
G1 X92.986 Y38.512 E3.26189
G1 X93.466 Y39.455 E3.29463
G1 X93.632 Y40.500 E3.32737
G1 X93.466 Y41.545 E3.36011
G1 X92.986 Y42.488 E3.39284
G1 X92.238 Y43.236 E3.42558
G1 X91.295 Y43.716 E3.45831
G1 X90.250 Y43.882 E3.49105
G1 X89.205 Y43.716 E3.52379
G1 X88.262 Y43.236 E3.55652
G1 X87.514 Y42.488 E3.58925
G1 X87.034 Y41.545 E3.62200
G1 X86.883 Y40.593 E3.65183
G1 X87.501 Y40.500 F6000.000
G1 X87.636 Y39.651 F495.000 E3.67844
G1 X88.026 Y38.884 E3.70506
G1 X88.634 Y38.276 E3.73167
G1 X89.401 Y37.886 E3.75828
G1 X90.250 Y37.751 E3.78489
G1 X91.099 Y37.886 E3.81150
G1 X91.866 Y38.276 E3.83812
G1 X92.474 Y38.884 E3.86473
G1 X92.864 Y39.650 E3.89134
G1 X92.999 Y40.500 E3.91795
G1 X92.864 Y41.350 E3.94457
G1 X92.474 Y42.116 E3.97118
G1 X91.866 Y42.724 E3.99779
G1 X91.099 Y43.114 E4.02440
G1 X90.250 Y43.249 E4.05101
G1 X89.401 Y43.114 E4.07762
G1 X88.634 Y42.724 E4.10424
G1 X88.026 Y42.116 E4.13084
G1 X87.636 Y41.349 E4.15746
G1 X87.516 Y40.593 E4.18117
G1 X88.134 Y40.500 F6000.000
G1 X88.237 Y39.846 F495.000 E4.20166
G1 X88.538 Y39.256 E4.22215
G1 X89.006 Y38.788 E4.24263
G1 X89.596 Y38.487 E4.26312
G1 X90.250 Y38.384 E4.28361
G1 X90.904 Y38.487 E4.30410
G1 X91.494 Y38.788 E4.32458
G1 X91.962 Y39.256 E4.34507
G1 X92.263 Y39.846 E4.36556
G1 X92.366 Y40.500 E4.38604
G1 X92.263 Y41.154 E4.40653
G1 X91.962 Y41.744 E4.42702
G1 X91.494 Y42.212 E4.44751
G1 X90.904 Y42.513 E4.46799
G1 X90.250 Y42.616 E4.48848
G1 X89.596 Y42.513 E4.50897
G1 X89.006 Y42.212 E4.52946
G1 X88.538 Y41.744 E4.54994
G1 X88.237 Y41.154 E4.57043
G1 X88.148 Y40.593 E4.58802
G1 X88.690 Y40.216 F6000.000
G1 F1500.000 E1.58802
G1 Z0.700 F6000.000
G92 E0
G1 X90.250 Y117.251
G1 Z0.450
G1 F1500.000 E3.00000
G1 X91.099 Y117.385 F495.000 E3.02661
G1 X91.866 Y117.776 E3.05322
G1 X92.474 Y118.384 E3.07983
G1 X92.864 Y119.150 E3.10644
G1 X92.999 Y120.000 E3.13306
G1 X92.864 Y120.850 E3.15967
G1 X92.474 Y121.616 E3.18628
G1 X91.866 Y122.224 E3.21289
G1 X91.099 Y122.615 E3.23951
G1 X90.250 Y122.749 E3.26611
G1 X89.400 Y122.614 E3.29273
G1 X88.634 Y122.224 E3.31934
G1 X88.026 Y121.616 E3.34595
G1 X87.635 Y120.849 E3.37257
G1 X87.501 Y120.000 E3.39918
G1 X87.635 Y119.151 E3.42579
G1 X88.026 Y118.384 E3.45240
G1 X88.634 Y117.776 E3.47901
G1 X89.400 Y117.386 E3.50562
G1 X90.157 Y117.266 E3.52934
G1 X90.250 Y117.884 F6000.000
G1 X90.904 Y117.987 F495.000 E3.54982
G1 X91.494 Y118.288 E3.57031
G1 X91.962 Y118.756 E3.59080
G1 X92.263 Y119.346 E3.61129
G1 X92.366 Y120.000 E3.63177
G1 X92.263 Y120.654 E3.65226
G1 X91.962 Y121.244 E3.67275
G1 X91.494 Y121.712 E3.69323
G1 X90.904 Y122.013 E3.71372
G1 X90.250 Y122.116 E3.73421
G1 X89.596 Y122.013 E3.75470
G1 X89.006 Y121.712 E3.77519
G1 X88.538 Y121.244 E3.79567
G1 X88.237 Y120.654 E3.81616
G1 X88.134 Y120.000 E3.83665
G1 X88.237 Y119.346 E3.85713
G1 X88.538 Y118.756 E3.87762
G1 X89.006 Y118.288 E3.89811
G1 X89.596 Y117.987 E3.91859
G1 X90.157 Y117.898 E3.93618
G1 X90.534 Y118.440 F6000.000
G1 F1500.000 E0.93618
G1 Z0.700 F6000.000
G92 E0
G1 X33.632 Y120.000
G1 Z0.450
G1 F1500.000 E3.00000
G1 X33.466 Y121.045 F495.000 E3.03274
G1 X32.986 Y121.988 E3.06547
G1 X32.238 Y122.736 E3.09821
G1 X31.295 Y123.216 E3.13095
G1 X30.250 Y123.382 E3.16368
G1 X29.205 Y123.216 E3.19642
G1 X28.262 Y122.736 E3.22916
G1 X27.514 Y121.988 E3.26189
G1 X27.034 Y121.045 E3.29463
G1 X26.868 Y120.000 E3.32737
G1 X27.034 Y118.955 E3.36010
G1 X27.514 Y118.012 E3.39284
G1 X28.262 Y117.264 E3.42557
G1 X29.205 Y116.784 E3.45831
G1 X30.250 Y116.618 E3.49105
G1 X31.295 Y116.784 E3.52378
G1 X32.238 Y117.264 E3.55652
G1 X32.986 Y118.012 E3.58926
G1 X33.466 Y118.955 E3.62199
G1 X33.617 Y119.907 E3.65183
G1 X32.999 Y120.000 F6000.000
G1 X32.864 Y120.850 F495.000 E3.67845
G1 X32.474 Y121.616 E3.70506
G1 X31.866 Y122.224 E3.73167
G1 X31.099 Y122.615 E3.75828
G1 X30.250 Y122.749 E3.78489
G1 X29.400 Y122.614 E3.81150
G1 X28.634 Y122.224 E3.83812
G1 X28.026 Y121.616 E3.86473
G1 X27.636 Y120.850 E3.89134
G1 X27.501 Y120.000 E3.91795
G1 X27.636 Y119.150 E3.94456
G1 X28.026 Y118.384 E3.97118
G1 X28.634 Y117.776 E3.99779
G1 X29.400 Y117.386 E4.02440
G1 X30.250 Y117.251 E4.05101
G1 X31.099 Y117.385 E4.07762
G1 X31.866 Y117.776 E4.10424
G1 X32.474 Y118.384 E4.13085
G1 X32.864 Y119.150 E4.15746
G1 X32.984 Y119.907 E4.18117
G1 X32.366 Y120.000 F6000.000
G1 X32.263 Y120.654 F495.000 E4.20166
G1 X31.962 Y121.244 E4.22215
G1 X31.494 Y121.712 E4.24263
G1 X30.904 Y122.013 E4.26312
G1 X30.250 Y122.116 E4.28361
G1 X29.596 Y122.013 E4.30409
G1 X29.006 Y121.712 E4.32458
G1 X28.538 Y121.244 E4.34507
G1 X28.237 Y120.654 E4.36556
G1 X28.134 Y120.000 E4.38604
G1 X28.237 Y119.346 E4.40653
G1 X28.538 Y118.756 E4.42702
G1 X29.006 Y118.288 E4.44750
G1 X29.596 Y117.987 E4.46799
G1 X30.250 Y117.884 E4.48848
G1 X30.904 Y117.987 E4.50896
G1 X31.494 Y118.288 E4.52945
G1 X31.962 Y118.756 E4.54994
G1 X32.263 Y119.346 E4.57043
G1 X32.352 Y119.907 E4.58801
G1 X31.810 Y120.284 F6000.000
G1 F1500.000 E1.58801
G1 Z0.700 F6000.000
G92 E0
G1 X16.812 Y127.312
G1 Z0.450
G1 F1500.000 E3.00000
G1 X16.812 Y77.688 F990.000 E4.53545
G1 X11.812 Y77.688 E4.69015
G1 X11.812 Y31.812 E6.10960
G1 X12.688 Y31.812 E6.13669
G1 X12.688 Y36.812 E6.29140
G1 X29.568 Y36.812 E6.81370
G1 X29.629 Y37.068 E6.82182
G1 X28.262 Y37.764 E6.86930
G1 X27.514 Y38.512 E6.90203
G1 X27.034 Y39.455 E6.93477
G1 X26.868 Y40.500 E6.96751
G1 X27.034 Y41.545 E7.00025
G1 X27.514 Y42.488 E7.03299
G1 X28.262 Y43.236 E7.06572
G1 X29.205 Y43.716 E7.09846
G1 X30.250 Y43.882 E7.13119
G1 X31.295 Y43.716 E7.16393
G1 X32.238 Y43.236 E7.19666
G1 X32.986 Y42.488 E7.22940
G1 X33.466 Y41.545 E7.26214
G1 X33.632 Y40.500 E7.29488
G1 X33.466 Y39.455 E7.32762
G1 X32.986 Y38.512 E7.36035
G1 X32.238 Y37.764 E7.39309
G1 X30.871 Y37.068 E7.44056
G1 X30.932 Y36.812 E7.44869
G1 X62.312 Y36.812 E8.41964
G1 X62.312 Y31.812 E8.57434
G1 X108.188 Y31.812 E9.99379
G1 X108.188 Y32.688 E10.02088
G1 X103.188 Y32.688 E10.17559
G1 X103.188 Y82.312 E11.71103
G1 X108.188 Y82.312 E11.86574
G1 X108.188 Y128.188 E13.28519
G1 X107.312 Y128.188 E13.31228
G1 X107.312 Y123.188 E13.46699
G1 X91.786 Y123.188 E13.94740
G1 X92.986 Y121.988 E13.99991
G1 X93.466 Y121.045 E14.03264
G1 X93.632 Y120.000 E14.06538
G1 X93.466 Y118.955 E14.09813
G1 X92.986 Y118.012 E14.13086
G1 X92.238 Y117.264 E14.16359
G1 X91.295 Y116.784 E14.19634
G1 X90.250 Y116.618 E14.22906
G1 X89.205 Y116.784 E14.26181
G1 X88.262 Y117.264 E14.29454
G1 X87.514 Y118.012 E14.32727
G1 X87.034 Y118.955 E14.36002
G1 X86.868 Y120.000 E14.39275
G1 X87.034 Y121.045 E14.42548
G1 X87.514 Y121.988 E14.45823
G1 X88.714 Y123.188 E14.51074
G1 X57.688 Y123.188 E15.47074
G1 X57.688 Y128.188 E15.62544
G1 X11.812 Y128.188 E17.04489
G1 X11.812 Y127.312 E17.07199
G1 X16.718 Y127.312 E17.22379
G1 F1500.000 E14.22379
G1 Z0.700 F6000.000
G92 E0
G1 X108.813 Y128.813
G1 Z0.450
G1 F1500.000 E3.00000
G1 X106.687 Y128.813 F990.000 E3.06576
G1 X106.687 Y123.813 E3.22047
G1 X58.313 Y123.813 E4.71724
G1 X58.313 Y128.813 E4.87195
G1 X11.187 Y128.813 E6.33007
G1 X11.187 Y126.687 E6.39583
G1 X16.187 Y126.687 E6.55054
G1 X16.187 Y78.313 E8.04731
G1 X11.187 Y78.313 E8.20202
G1 X11.187 Y31.187 E9.66014
G1 X13.313 Y31.187 E9.72590
G1 X13.313 Y36.187 E9.88061
G1 X61.687 Y36.187 E11.37738
G1 X61.687 Y31.187 E11.53209
G1 X108.813 Y31.187 E12.99021
G1 X108.813 Y33.313 E13.05597
G1 X103.813 Y33.313 E13.21068
G1 X103.813 Y81.687 E14.70745
G1 X108.813 Y81.687 E14.86216
G1 X108.813 Y128.719 E16.31738
G1 X109.438 Y129.438 F6000.000
G1 X106.062 Y129.438 F594.000 E16.42181
G1 X106.062 Y124.438 E16.57651
G1 X58.938 Y124.438 E18.03462
G1 X58.938 Y129.438 E18.18933
G1 X10.562 Y129.438 E19.68612
G1 X10.562 Y126.062 E19.79055
G1 X15.562 Y126.062 E19.94525
G1 X15.562 Y78.938 E21.40336
G1 X10.562 Y78.938 E21.55807
G1 X10.562 Y30.562 E23.05486
G1 X13.938 Y30.562 E23.15929
G1 X13.938 Y35.562 E23.31399
G1 X61.062 Y35.562 E24.77210
G1 X61.062 Y30.562 E24.92681
G1 X109.438 Y30.562 E26.42360
G1 X109.438 Y33.938 E26.52803
G1 X104.438 Y33.938 E26.68273
G1 X104.438 Y81.062 E28.14084
G1 X109.438 Y81.062 E28.29555
G1 X109.438 Y129.344 E29.78943
G1 X108.896 Y129.125 F6000.000
G1 F1500.000 E26.78943
G1 Z0.700 F6000.000
G92 E0
G1 X97.425 Y122.735
G1 Z0.450
G1 F1500.000 E3.00000
G1 X93.977 Y119.287 F1200.000 E3.15107
G1 X94.051 Y120.246 E3.18088
G1 X96.540 Y122.735 E3.28993
G1 X95.655 Y122.735 E3.31735
G1 X93.930 Y121.010 E3.39293
G1 X93.673 Y121.638 E3.41394
G1 X94.770 Y122.735 E3.46203
G1 X93.885 Y122.735 E3.48945
G1 X93.374 Y122.224 E3.51185
G1 X93.397 Y117.822 F6000.000
G1 X98.310 Y122.735 F1200.000 E3.72713
G1 X99.195 Y122.735 E3.75455
G1 X13.725 Y37.265 E7.49987
G1 X14.610 Y37.265 E7.52729
G1 X100.080 Y122.735 E11.27261
G1 X100.965 Y122.735 E11.30003
G1 X15.495 Y37.265 E15.04536
G1 X16.380 Y37.265 E15.07278
G1 X101.850 Y122.735 E18.81810
G1 X102.735 Y122.735 E18.84552
G1 X17.265 Y37.265 E22.59084
G1 X18.150 Y37.265 E22.61827
G1 X103.620 Y122.735 E26.36359
G1 X104.505 Y122.735 E26.39101
G1 X19.035 Y37.265 E30.13633
G1 X19.920 Y37.265 E30.16375
G1 X105.390 Y122.735 E33.90907
G1 X106.275 Y122.735 E33.93650
G1 X20.805 Y37.265 E37.68182
G1 X21.690 Y37.265 E37.70924
G1 X27.103 Y42.678 E37.94641
G1 X28.073 Y43.648 F6000.000
G1 X107.160 Y122.735 F1200.000 E41.41206
G1 X107.735 Y122.425 E41.43230
G1 X29.537 Y44.227 E44.85894
G1 X30.496 Y44.301 E44.88874
G1 X107.735 Y121.540 E48.27337
G1 X107.735 Y120.655 E48.30079
G1 X31.260 Y44.180 E51.65194
G1 X31.888 Y43.923 E51.67296
G1 X107.735 Y119.770 E54.99662
G1 X107.735 Y118.885 E55.02404
G1 X32.474 Y43.624 E58.32201
G1 X32.925 Y43.190 E58.34140
G1 X107.735 Y118.000 E61.61962
G1 X107.735 Y117.115 E61.64704
G1 X33.364 Y42.744 E64.90602
G1 X33.662 Y42.157 E64.92641
G1 X107.735 Y116.230 E68.17230
G1 X107.735 Y115.345 E68.19972
G1 X33.926 Y41.536 E71.43405
G1 X34.047 Y40.772 E71.45802
G1 X107.735 Y114.460 E74.68704
G1 X107.735 Y113.575 E74.71447
G1 X33.983 Y39.823 E77.94630
G1 X33.429 Y38.384 E77.99410
G1 X107.735 Y112.690 E81.25024
G1 X107.735 Y111.805 E81.27766
G1 X33.195 Y37.265 E84.54403
G1 X34.080 Y37.265 E84.57145
G1 X107.735 Y110.920 E87.79903
G1 X107.735 Y110.035 E87.82645
G1 X34.965 Y37.265 E91.01525
G1 X35.850 Y37.265 E91.04268
G1 X107.735 Y109.150 E94.19270
G1 X107.735 Y108.265 E94.22012
G1 X36.735 Y37.265 E97.33136
G1 X37.620 Y37.265 E97.35878
G1 X107.735 Y107.380 E100.43124
G1 X107.735 Y106.495 E100.45866
G1 X38.505 Y37.265 E103.49234
G1 X39.390 Y37.265 E103.51976
G1 X107.735 Y105.610 E106.51466
G1 X107.735 Y104.725 E106.54208
G1 X40.275 Y37.265 E109.49820
G1 X41.160 Y37.265 E109.52562
G1 X107.735 Y103.840 E112.44296
G1 X107.735 Y102.955 E112.47038
G1 X42.045 Y37.265 E115.34893
G1 X42.930 Y37.265 E115.37635
G1 X107.735 Y102.070 E118.21613
G1 X107.735 Y101.185 E118.24355
G1 X43.815 Y37.265 E121.04454
G1 X44.700 Y37.265 E121.07196
G1 X107.735 Y100.300 E123.83418
G1 X107.735 Y99.415 E123.86160
G1 X45.585 Y37.265 E126.58503
G1 X46.470 Y37.265 E126.61245
G1 X107.735 Y98.530 E129.29710
G1 X107.735 Y97.645 E129.32452
G1 X47.355 Y37.265 E131.97039
G1 X48.240 Y37.265 E131.99781
G1 X107.735 Y96.760 E134.60490
G1 X107.735 Y95.875 E134.63232
G1 X49.125 Y37.265 E137.20063
G1 X50.010 Y37.265 E137.22805
G1 X107.735 Y94.990 E139.75758
G1 X107.735 Y94.105 E139.78500
G1 X50.895 Y37.265 E142.27575
G1 X51.780 Y37.265 E142.30317
G1 X107.735 Y93.220 E144.75513
G1 X107.735 Y92.335 E144.78255
G1 X52.665 Y37.265 E147.19574
G1 X53.550 Y37.265 E147.22316
G1 X107.735 Y91.450 E149.59756
G1 X107.735 Y90.565 E149.62498
G1 X54.435 Y37.265 E151.96061
G1 X55.320 Y37.265 E151.98803
G1 X107.735 Y89.680 E154.28487
G1 X107.735 Y88.795 E154.31229
G1 X56.205 Y37.265 E156.57035
G1 X57.090 Y37.265 E156.59777
G1 X107.735 Y87.910 E158.81705
G1 X107.735 Y87.025 E158.84447
G1 X103.475 Y82.765 E159.03114
G1 X104.360 Y82.765 E159.05856
G1 X107.735 Y86.140 E159.20645
G1 X107.735 Y85.255 E159.23387
G1 X105.245 Y82.765 E159.34298
G1 X106.130 Y82.765 E159.37040
G1 X107.735 Y84.370 E159.44072
G1 X107.735 Y83.485 E159.46814
